!!!!SEGMENT: pl-cz--iii-671--001_lscigalski-franciszek--missa-in-es-kyrie.krn
!!!cenid: 18xx:1117
!!!COM: Ścigalski, Franciszek
!!!COM-rismid: pe30002948
!!!CDT: 1782/01/29-1846/09/27
!!!CNT: Polish
!!!OPR: Missa in Es
!!!OTL: Kyrie
!!!OMV: 001
!!!PDT:
!!!AGN: Sacred; Mass
!!!SMS-siglum: PL-CZ
!!!SMS-shelfmark: III-671
!!!SMS-shelfwork: 001-001 M
!!!SMS-variant:
!!!SMS-altvar:
!!!NIFC-rismid: 300001315
!!!URL-scan: http://repozytorium.nifc.pl/skany/pl-cz-nut--iii-671
!!!ONB-nifc: UWAGA: części Mszy: Kyrie, Gloria, Quoniam, Patrem, Sanctus, Benedictus, Agnus Dei
!!!key: E-
**kern	**fba	**dynam	**kern	**dynam	**kern	**dynam	**kern	**dynam	**kern	**text	**dynam	**kern	**text	**kern	**text	**kern	**text	**kern	**dynam	**kern	**dynam	**kern	**dynam	**kern	**dynam	**kern	**kern	**dynam
*	*	*	*group4	*	*group4	*	*group4	*	*group3	*	*	*group3	*	*group3	*	*group3	*	*group2	*	*group2	*	*group1	*	*group1	*	*group1	*group1	*
*part14	*	*part14	*part13	*part13	*part12	*part12	*part11	*part11	*part10	*part10	*part10	*part9	*part9	*part8	*part8	*part7	*part7	*part6	*part6	*part5	*part5	*part4	*part4	*part3	*part3	*part2	*part1	*part1
*staff14	*	*	*staff13	*	*staff12	*	*staff11	*	*staff10	*staff10	*	*staff9	*staff9	*staff8	*staff8	*staff7	*staff7	*staff6	*	*staff5	*	*staff4	*	*staff3	*	*staff2	*staff1	*
*I"Organo.	*	*	*I"Viola.	*	*I"Violino Secundo	*	*I"Violino Primo	*	*I"Baſso	*	*	*I"Tenore.	*	*I"Alto	*	*I"Canto	*	*I"Cornu Secundo Dis	*	*I"Cornu Primo in Dis	*	*I"Clarinetto Secundo	*	*I"Clarinetto. Primo	*	*I"Fluto Oboe Secondo	*I"Flauto Primo Obligatto	*
*I'org	*	*	*I'vla	*	*I'vl 2	*	*I'vl 1	*	*I'B	*	*	*I'T	*	*I'A	*	*I'S	*	*I'cor 2 in Dis	*	*I'cor 1 in Dis	*	*I'cl 2	*	*I'cl 1	*	*I'fl 2	*I'fl 1	*
*Iorgan	*	*	*Iviola	*	*Ivioln	*	*Ivioln	*	*Ibass	*	*	*Itenor	*	*Ialto	*	*Isoprn	*	*Icor	*	*Icor	*	*Iclars	*	*Iclars	*	*Iflt	*Iflt	*
*ICklav	*	*	*ICstr	*	*ICstr	*	*ICstr	*	*ICvox	*	*	*ICvox	*	*ICvox	*	*ICvox	*	*ICbras	*	*ICbras	*	*ICww	*	*ICww	*	*ICww	*ICww	*
*IGcont	*	*	*	*	*	*	*	*	*IGcoro	*	*	*IGcoro	*	*IGcoro	*	*IGcoro	*	*	*	*	*	*	*	*	*	*	*	*
*	*	*	*	*	*	*	*	*	*	*	*	*	*	*oclefC1	*	*	*	*	*	*	*	*	*	*	*	*	*	*
*clefF4	*	*	*clefC3	*	*clefG2	*	*clefG2	*	*clefF4	*	*	*clefC4	*	*clefC3	*	*clefC1	*	*clefG2	*	*clefG2	*	*clefG2	*	*clefG2	*	*clefG2	*clefG2	*
*	*	*	*	*	*	*	*	*	*	*	*	*	*	*	*	*	*	*ITrd-2c-3	*	*ITrd-2c-3	*	*ITrd1c2	*	*ITrd1c2	*	*	*	*
*k[b-e-a-]	*	*	*k[b-e-a-]	*	*k[b-e-a-]	*	*k[b-e-a-]	*	*k[b-e-a-]	*	*	*k[a-e-b-]	*	*k[a-e-b-]	*	*k[b-e-a-]	*	*k[b-e-a-]	*	*k[b-e-a-]	*	*k[b-e-a-]	*	*k[b-e-a-]	*	*k[b-a-e-]	*k[b-e-a-]	*
*E-:	*	*	*E-:	*	*E-:	*	*E-:	*	*E-:	*	*	*E-:	*	*E-:	*	*E-:	*	*	*	*	*	*E-:	*	*E-:	*	*E-:	*E-:	*
*M2/2	*	*	*M2/2	*	*M2/2	*	*M2/2	*	*M2/2	*	*	*M2/2	*	*M2/2	*	*M2/2	*	*M2/2	*	*M2/2	*	*M2/2	*	*M2/2	*	*M2/2	*M2/2	*
*met(c|)	*	*	*met(c|)	*	*met(c|)	*	*met(c|)	*	*met(c|)	*	*	*met(c|)	*	*met(c|)	*	*met(c|)	*	*met(c|)	*	*met(c|)	*	*met(c|)	*	*met(c|)	*	*met(c)	*met(c)	*
=1	=1	=1	=1	=1	=1	=1	=1	=1	=1	=1	=1	=1	=1	=1	=1	=1	=1	=1	=1	=1	=1	=1	=1	=1	=1	=1	=1	=1
*	*	*	*	*	*	*	*	*	*2\right	*	*	*2\right	*	*2\right	*	*2\right	*	*2\right	*	*2\right	*	*	*	*2\right	*	*2\right	*2\right	*
!	!	!	!	!	!	!	!	!	!	!	!	!LO:TX:a:i:t=Solo	!	!LO:TX:t=P:problem:błędnie klucz C1	!	!	!	!	!	!	!	!LO:TX:a:i:t=Solo	!	!LO:TX:a:i:t=Solo	!	!	!	!
!LO:TX:a:rj:t=Adagio	!	!	!LO:TX:a:rj:t=Adagio	!	!LO:TX:a:rj:t=Adagio	!	!LO:TX:a:rj:t=Adagio	!	!LO:TX:a:rj:t=Adagio	!	!	!LO:TX:a:rj:t=Adagio	!	!LO:TX:a:rj:t=Adagio	!	!LO:TX:a:rj:t=Adagio	!	!LO:TX:a:rj:t=Adagio	!	!LO:TX:a:rj:t=Adagio	!	!LO:TX:a:rj:t=Adagio	!	!LO:TX:a:rj:t=Adgio	!	!LO:TX:a:i:rj:t=Adagio	!LO:TX:a:rj:t=Adagio	!
4E-\	5 3	.	4r	.	4r	.	4r	.	2.e-\	Ky-	pp	2.e-\	Ky-	2.g\	Ky-	2.b-\	Ky-	2.ee-\	.	2.gg\	.	2.g/	.	2.b-\	<	2.b-\	2.gg\	.
!	!	!	!	!LO:DY:a:t=pio	!	!LO:DY:a:t=pio	!	!	!	!	!	!	!	!	!	!	!	!	!	!	!	!	!	!	!	!	!	!
4r	.	.	4e-\	p	4g/	p	4b-\	.	.	.	.	.	.	.	.	.	.	.	.	.	.	.	.	.	.	.	.	.
2r	.	.	4e-\	.	4g/	.	(4b-\	.	.	.	.	.	.	.	.	.	.	.	.	.	.	.	.	.	.	.	.	.
.	.	.	4d\	.	4a-X/	.	4bn\)	.	4d\	-ri-	.	4f\	-ri-	4a-\	-ri-	4bn\	-ri-	4ff\	.	4aa-\	.	4a-/	.	4bX\	[	4bn\	4aa-\	.
=2	=2	=2	=2	=2	=2	=2	=2	=2	=2	=2	=2	=2	=2	=2	=2	=2	=2	=2	=2	=2	=2	=2	=2	=2	=2	=2	=2	=2
*	*	*	*2\right	*	*	*	*	*	*	*	*	*	*	*	*	*	*	*	*	*	*	*	*	*	*	*	*	*
4C/	6_ 3_	.	2c\	.	2g/	.	4.ccsSSS\	.	2c\	-e	.	2e-\	-e	2g\	-e	4.ccs$SS\	-e	2ee-\	.	2gg\	.	2g/	.	4.cc\	.	4.cc\	2gg\	.
4r	.	.	.	.	.	.	.	.	.	.	.	.	.	.	.	.	.	.	.	.	.	.	.	.	.	.	.	.
.	.	.	.	.	.	.	8dd\	.	.	.	.	.	.	.	.	8dd\	e-	.	.	.	.	.	.	8dd\	.	8dd\	.	.
4r	.	.	4r	.	4r	.	(8ff\L	.	4r	.	.	4r	.	4r	.	(8ff\L	-lei-	4r	.	4r	.	4r	.	8ff\L	.	8ff\L	4r	.
.	.	.	.	.	.	.	8ee-\J)	.	.	.	.	.	.	.	.	8ee-\	.	.	.	.	.	.	.	(8ee-\	.	8ee-\	.	.
4A-\	.	.	4A-/	.	4f/	.	(8cc\L	.	4A-\	e-	.	4c\	e-	4f\	e-	8cc\	.	4ff\	.	4aa-\	.	4f/	.	8cc\)	.	8cc\	4aa-\	.
.	.	.	.	.	.	.	8a-\J)	.	.	.	.	.	.	.	.	8a-\J)	.	.	.	.	.	.	.	8a-\J	.	8a-\J	.	.
=3	=3	=3	=3	=3	=3	=3	=3	=3	=3	=3	=3	=3	=3	=3	=3	=3	=3	=3	=3	=3	=3	=3	=3	=3	=3	=3	=3	=3
4B-\	6 4	.	4B-/	.	4r	.	4r	.	2B-\	-lei-	.	(2B-\	-lei-	2e-\	-lei	2g/	.	2ee-\	.	2gg\	.	2e-/	.	2g/	.	2gg\	2gg\	.
4r	.	.	4r	.	4e-/	.	4g/	.	.	.	.	.	.	.	.	.	.	.	.	.	.	.	.	.	.	.	.	.
4BB-/	7 5	.	4A-/	.	4r	.	4r	.	2BB-/	.	.	2A-X\)	.	2d\	.	2fT/	.	2b-/	.	2ff\	.	2d/	.	2fT/	.	2ff\	2ff\	.
4r	.	.	4r	.	4d/	.	4f/	.	.	.	.	.	.	.	.	.	.	.	.	.	.	.	.	.	.	.	.	.
=4	=4	=4	=4	=4	=4	=4	=4	=4	=4	=4	=4	=4	=4	=4	=4	=4	=4	=4	=4	=4	=4	=4	=4	=4	=4	=4	=4	=4
*	*	*	*	*	*	*	*^	*	*	*	*	*	*	*	*	*	*	*	*	*	*	*	*	*	*	*	*	*
*	*	*	*	*	*tremolo	*	*tremolo	*cue	*	*	*	*	*	*	*	*	*	*	*	*	*	*	*	*	*	*	*	*	*
!LO:TX:a:i:t=Tasto	!	!	!	!	!	!	!	!	!LO:DY:b:rj:t=pio	!	!	!	!	!	!	!	!	!	!	!	!	!	!	!	!LO:TX:a:i:rj:t=Solo	!	!	!	!
4E-\	.	.	4E-/	.	(8e-/L	.	(<8g/L	8ee-/L	p	4E-\	-son	.	2G/	-son	4B-/	[-son]	4e-/	-son	4g/	.	4ee-\	.	4e-/	.	8ee-\L	.	8ee-\L	4ee-\	.
.	.	.	.	.	8B-/	.	8B-/	8bb-/J	.	.	.	.	.	.	.	.	.	.	.	.	.	.	.	.	8bb-\J	.	8bb-\J	.	.
4r	.	.	4r	.	8e-/	.	8g/	2bb-/	.	4r	.	.	.	.	4r	.	4r	.	4r	.	4r	.	4r	.	2bb-\	.	2bb-\	4r	.
.	.	.	.	.	8B-/J)	.	8B-/J)	.	.	.	.	.	.	.	.	.	.	.	.	.	.	.	.	.	.	.	.	.	.
4E-\	.	.	4E-/	.	(8e-/L	.	(<8g/L	.	.	2r	.	.	2r	.	2r	.	2r	.	2r	.	2r	.	2r	.	.	.	.	2r	.
.	.	.	.	.	8B-/	.	8B-/	.	.	.	.	.	.	.	.	.	.	.	.	.	.	.	.	.	.	.	.	.	.
4r	.	.	4r	.	8e-/	.	8g/	8gg/L	.	.	.	.	.	.	.	.	.	.	.	.	.	.	.	.	8gg\L	.	8gg\L	.	.
.	.	.	.	.	8B-/J)	.	8B-/J)	8ee-/J	.	.	.	.	.	.	.	.	.	.	.	.	.	.	.	.	8ee-\J	.	8ee-\J	.	.
*	*	*	*	*	*Xtremolo	*	*	*	*	*	*	*	*	*	*	*	*	*	*	*	*	*	*	*	*	*	*	*	*
=5	=5	=5	=5	=5	=5	=5	=5	=5	=5	=5	=5	=5	=5	=5	=5	=5	=5	=5	=5	=5	=5	=5	=5	=5	=5	=5	=5	=5	=5
!	!	!	!	!	!	!	!	!	!	!	!	!	!	!	!	!	!	!	!	!	!LO:TX:a:i:rj:t=Solo	!	!LO:TX:b:t=7:color=grey	!	!	!	!	!LO:TX:a:i:rj:t=Solo	!
!	!	!	!	!	!	!	!	!	!	!LO:TX:a:t=7	!	!	!LO:TX:a:t=7	!	!LO:TX:a:t=7	!	!LO:TX:a:t=7	!	!LO:TX:a:t=1	!	!	!	!LO:TX:a:t=6	!	!	!	!	!	!
4BB-/	.	.	4B-/	.	4f/	.	(<8a-/L	8ffL 8dd/	.	00r	.	.	00r	.	00r	.	00r	.	1r	.	8ff\L	.	00r	.	(8ee-\L	.	8ee-\L	(8ff\L	.
.	.	.	.	.	.	.	8B-/	8bb-/J	.	.	.	.	.	.	.	.	.	.	.	.	8bb-\J	.	.	.	8dd\J)	.	8dd\J	8bb-\J)	.
4r	.	.	4r	.	4f/	.	8a-/	2bb- 2dd/	.	.	.	.	.	.	.	.	.	.	.	.	2bb-\	.	.	.	2dd\	.	2dd\	2bb-\	.
.	.	.	.	.	.	.	8B-/J)	.	.	.	.	.	.	.	.	.	.	.	.	.	.	.	.	.	.	.	.	.	.
*	*	*	*	*	*	*	*rep	*	*	*	*	*	*	*	*	*	*	*	*	*	*	*	*	*	*	*	*	*	*
4BB-/	.	.	4B-/	.	4f/	.	(<8a-/L	.	.	.	.	.	.	.	.	.	.	.	.	.	.	.	.	.	.	.	.	.	.
.	.	.	.	.	.	.	8B-/	.	.	.	.	.	.	.	.	.	.	.	.	.	.	.	.	.	.	.	.	.	.
4r	.	.	4r	.	4f/	.	8a-/	8aa-L 8ff/	.	.	.	.	.	.	.	.	.	.	.	.	8aa-\L	.	.	.	(8ff\L	.	8ff\L	(8aa-\L	.
.	.	.	.	.	.	.	8B-/J)	8ff/J	.	.	.	.	.	.	.	.	.	.	.	.	8ff\J	.	.	.	8dd\J)	.	8dd\J	8ff\J)	.
*	*	*	*	*	*	*	*Xrep	*	*	*	*	*	*	*	*	*	*	*	*	*	*	*	*	*	*	*	*	*	*
!	!	!	!	!	!	!	!LO:LB:g=original	!LO:LB:g=original	!	!	!	!	!	!	!	!	!	!	!	!	!	!	!	!	!	!	!	!	!
=6	=6	=6	=6	=6	=6	=6	=6	=6	=6	=6	=6	=6	=6	=6	=6	=6	=6	=6	=6	=6	=6	=6	=6	=6	=6	=6	=6	=6	=6
!	!	!	!	!	!	!	!	!	!	!	!	!	!	!	!	!	!	!	!LO:TX:a:i:t=Solo	!	!	!	!	!	!	!	!	!	!
4E-\	.	.	4E-/	.	4e-/	.	8g/L	4ee-/	.	.	.	.	.	.	.	.	.	.	8e-/L	.	4ee-\	.	.	.	2ee-\	.	2ee-\	4ee-\	.
.	.	.	.	.	.	.	8B-/	.	.	.	.	.	.	.	.	.	.	.	8b-/J	.	.	.	.	.	.	.	.	.	.
4r	.	.	4r	.	4e-/	.	8g/	4ree	.	.	.	.	.	.	.	.	.	.	2b-/	.	4r	.	.	.	.	.	.	4r	.
.	.	.	.	.	.	.	8B-/J	.	.	.	.	.	.	.	.	.	.	.	.	.	.	.	.	.	.	.	.	.	.
4E-\	.	.	4E-/	.	4e-/	.	8g/L	4ree	.	.	.	.	.	.	.	.	.	.	.	.	2r	.	.	.	2r	.	2r	2r	.
.	.	.	.	.	.	.	8B-/	.	.	.	.	.	.	.	.	.	.	.	.	.	.	.	.	.	.	.	.	.	.
4r	.	.	4r	.	4e-/	.	8g/	4ree	.	.	.	.	.	.	.	.	.	.	8b-/L	.	.	.	.	.	.	.	.	.	.
.	.	.	.	.	.	.	8B-/J	.	.	.	.	.	.	.	.	.	.	.	8e-/J	.	.	.	.	.	.	.	.	.	.
!	!	!	!	!	!	!	!	!	!	!	!	!	!	!	!	!	!	!	!	!	!	!	!	!	!	!	!LO:LB:g=original	!	!
=7	=7	=7	=7	=7	=7	=7	=7	=7	=7	=7	=7	=7	=7	=7	=7	=7	=7	=7	=7	=7	=7	=7	=7	=7	=7	=7	=7	=7	=7
4BB-/	.	.	4B-/	.	4f/	.	8a-/L	8ffL/	.	.	.	.	.	.	.	.	.	.	2B-/	.	(8ff\L	.	.	.	8b-\L	.	8b-\L	(8ff\L	.
.	.	.	.	.	.	.	8B-/	8bb-/J	.	.	.	.	.	.	.	.	.	.	.	.	8bb-\J)	.	.	.	8dd\J	.	8dd\J	8bb-\J)	.
4r	.	.	4r	.	4f/	.	8a-/	2bb- 2dd/	.	.	.	.	.	.	.	.	.	.	.	.	2bb-\	.	.	.	2dd\	.	2dd\	2bb-\	.
.	.	.	.	.	.	.	8B-/J	.	.	.	.	.	.	.	.	.	.	.	.	.	.	.	.	.	.	.	.	.	.
4BB-/	.	.	4B-/	.	4f/	.	8a-/L	.	.	.	.	.	.	.	.	.	.	.	2b-/	.	.	.	.	.	.	.	.	.	.
.	.	.	.	.	.	.	8B-/	.	.	.	.	.	.	.	.	.	.	.	.	.	.	.	.	.	.	.	.	.	.
4r	.	.	4r	.	4f/	.	8a-/	8aa-/L	.	.	.	.	.	.	.	.	.	.	.	.	(8aa-\L	.	.	.	(8ff\L	.	8ff\L	(8aa-\L	.
.	.	.	.	.	.	.	8B-/J	8ff/J	.	.	.	.	.	.	.	.	.	.	.	.	8ff\J)	.	.	.	8dd\J)	.	8dd\J	8ff\J)	.
*	*	*	*	*	*	*	*Xtremolo	*	*	*	*	*	*	*	*	*	*	*	*	*	*	*	*	*	*	*	*	*	*
!LO:LB:g=original	!	!	!LO:LB:g=original	!	!	!	!	!	!	!	!	!	!	!	!	!	!	!	!LO:LB:g=original	!	!	!	!	!	!	!	!	!LO:LB:g=original	!
=8	=8	=8	=8	=8	=8	=8	=8	=8	=8	=8	=8	=8	=8	=8	=8	=8	=8	=8	=8	=8	=8	=8	=8	=8	=8	=8	=8	=8	=8
*	*	*	*	*	*	*	*	*	*	*	*	*	*	*	*	*	*	*	*	*	*^	*	*	*	*	*	*	*	*
4E-\	.	.	4G/	.	8r	.	8raa	8bb-L 8ee-/	.	.	.	.	.	.	.	.	.	.	4g/	.	(8bb-\L	8e\L@	.	.	.	4ee-\	.	4ee-\	8bb-\L	.
.	.	.	.	.	8B-/L	.	8e-'</L	8eee-/J	.	.	.	.	.	.	.	.	.	.	.	.	8eee-\J)	8b-\J@	.	.	.	.	.	.	8eee-\J	.
4r	.	.	4r	.	8B-/	.	8e-'</	2eee-/	.	.	.	.	.	.	.	.	.	.	4r	.	2eee-\	2b-\@	.	.	.	4r	.	4r	2eee-\	.
.	.	.	.	.	8B-/J	.	8e-'</J	.	.	.	.	.	.	.	.	.	.	.	.	.	.	.	.	.	.	.	.	.	.	.
*	*	*	*	*	*tremolo	*	*tremolo	*	*	*	*	*	*	*	*	*	*	*	*	*	*	*	*	*	*	*	*	*	*	*
4G\	.	.	4G/	.	8B-/L	.	8e-/L	.	.	.	.	.	.	.	.	.	.	.	2r	.	.	.	.	.	.	2r	.	2r	.	.
.	.	.	.	.	8B-/	.	8e-/	.	.	.	.	.	.	.	.	.	.	.	.	.	.	.	.	.	.	.	.	.	.	.
4r	.	.	4r	.	8B-/	.	8e-/	8bb-/L	.	.	.	.	.	.	.	.	.	.	.	.	(8bb-\L	8e-\L@	.	.	.	.	.	.	(8bb-\L	.
.	.	.	.	.	8B-/J	.	8e-/J	8gg/J	.	.	.	.	.	.	.	.	.	.	.	.	8gg\J)	8c\J@	.	.	.	.	.	.	8gg\J)	.
*	*	*	*	*	*Xtremolo	*	*Xtremolo	*	*	*	*	*	*	*	*	*	*	*	*	*	*	*	*	*	*	*	*	*	*	*
*	*	*	*	*	*	*	*	*	*	*	*	*	*	*	*	*	*	*	*	*	*v	*v	*	*	*	*	*	*	*	*
!	!	!	!	!	!	!	!	!	!	!	!	!	!	!	!	!	!	!	!	!	!LO:LB:g=original	!	!	!	!	!	!	!	!
=9	=9	=9	=9	=9	=9	=9	=9	=9	=9	=9	=9	=9	=9	=9	=9	=9	=9	=9	=9	=9	=9	=9	=9	=9	=9	=9	=9	=9	=9
!	!	!	!	!	!	!	!	!	!	!	!	!	!	!	!	!	!	!	!LO:TX:a:t=3	!	!	!	!	!	!LO:TX:a:t=1	!	!LO:TX:a:t=1	!	!
4A-X\	.	.	4A-/	.	8r	.	8rf	8ffL/	.	0r	.	.	0r	.	0r	.	0r	.	0r	.	(8ff\L	.	0r	.	1r	.	1r	8ff\L	.
.	.	.	.	.	8c/L	.	8b-L 8f'</	8ccc/J	.	.	.	.	.	.	.	.	.	.	.	.	8ccc\J)	.	.	.	.	.	.	8ccc\J	.
4r	.	.	4r	.	8c/	.	8f'</	2ccc/	.	.	.	.	.	.	.	.	.	.	.	.	2ccc\	.	.	.	.	.	.	2ccc\	.
.	.	.	.	.	8c/J	.	8f'</J	.	.	.	.	.	.	.	.	.	.	.	.	.	.	.	.	.	.	.	.	.	.
4A-\	.	.	4A-/	.	8r	.	8r	.	.	.	.	.	.	.	.	.	.	.	.	.	.	.	.	.	.	.	.	.	.
.	.	.	.	.	8c/L	.	8f/L	.	.	.	.	.	.	.	.	.	.	.	.	.	.	.	.	.	.	.	.	.	.
4r	.	.	4r	.	8c/	.	8f/	8aa-/L	.	.	.	.	.	.	.	.	.	.	.	.	(8aa-\L	.	.	.	.	.	.	8aa-\L	.
.	.	.	.	.	8c/J	.	8f/J	8ff/J	.	.	.	.	.	.	.	.	.	.	.	.	8ff\J)	.	.	.	.	.	.	8ff\J	.
!	!	!	!	!	!	!	!	!	!	!	!	!	!	!	!	!	!	!	!	!	!	!	!	!	!LO:LB:g=original	!	!	!	!
=10	=10	=10	=10	=10	=10	=10	=10	=10	=10	=10	=10	=10	=10	=10	=10	=10	=10	=10	=10	=10	=10	=10	=10	=10	=10	=10	=10	=10	=10
*	*	*	*	*	*	*	*2\right	*	*	*	*	*	*	*	*	*	*	*	*	*	*	*	*	*	*	*	*	*	*
!	!	!	!LO:TX:a:t=1	!	!LO:TX:a:t=1	!	!	!	!	!	!	!	!	!	!	!	!	!	!	!	!	!	!	!	!LO:TUP:a:problem:klamra łukowa	!	!LO:TUP:a:problem:klamra łukowa	!	!
4B-\	.	.	1r	.	1r	.	2b-\	4bb-/	.	.	.	.	.	.	.	.	.	.	.	.	4bb-\	.	.	.	12gg\L	.	12gg\L	4bb-\	.
.	.	.	.	.	.	.	.	.	.	.	.	.	.	.	.	.	.	.	.	.	.	.	.	.	12aa-\	.	12aa-\	.	.
.	.	.	.	.	.	.	.	.	.	.	.	.	.	.	.	.	.	.	.	.	.	.	.	.	12gg\J	.	12gg\J	.	.
4r	.	.	.	.	.	.	.	4aa-/	.	.	.	.	.	.	.	.	.	.	.	.	4aa-\	.	.	.	4ff\	.	4ff\	4aa-\	.
4BB-/	.	.	.	.	.	.	2B-/	4gg/	.	.	.	.	.	.	.	.	.	.	.	.	4gg\	.	.	.	4ee-\	.	4ee-\	4gg\	.
4r	.	.	.	.	.	.	.	4ff/	.	.	.	.	.	.	.	.	.	.	.	.	4ff\	.	.	.	4dd\	.	4dd\	4ff\	.
=11	=11	=11	=11	=11	=11	=11	=11	=11	=11	=11	=11	=11	=11	=11	=11	=11	=11	=11	=11	=11	=11	=11	=11	=11	=11	=11	=11	=11	=11
!	!	!	!	!	!	!LO:DY:a:t=for	!	!	!	!	!	!	!	!	!	!	!	!	!	!	!	!	!	!	!	!	!	!	!
4E-\	.	.	4G/	.	4B-/	f	4e-/	4gg/	.	1r	.	.	1r	.	1r	.	1r	.	1r	.	4gg\	.	1a-yy	.	4ee-\	.	4ee-\	4gg\	.
*	*	*	*	*	*	*	*	*Xcue	*	*	*	*	*	*	*	*	*	*	*	*	*	*	*	*	*	*	*	*	*
!	!	!	!	!	!	!	!	!	!LO:DY:a:t=for	!	!	!	!	!	!	!	!	!	!	!	!	!	!	!	!	!	!	!	!
4E-\	.	.	4G/	.	4B-/	.	4e- 4G/	2.gg\yy	f	.	.	.	.	.	.	.	.	.	.	.	4r	.	.	.	4r	.	4r	4r	.
4E-\	.	.	4G/	.	4B-/	.	4e- 4G/	.	.	.	.	.	.	.	.	.	.	.	.	.	2r	.	.	.	2r	.	2r	2r	.
4r	.	.	4r	.	4r	.	4r	.	.	.	.	.	.	.	.	.	.	.	.	.	.	.	.	.	.	.	.	.	.
*	*	*	*	*	*	*	*v	*v	*	*	*	*	*	*	*	*	*	*	*	*	*	*	*	*	*	*	*	*	*
=12	=12	=12	=12	=12	=12	=12	=12	=12	=12	=12	=12	=12	=12	=12	=12	=12	=12	=12	=12	=12	=12	=12	=12	=12	=12	=12	=12	=12
!	!	!	!	!	!	!	!	!	!	!	!	!	!	!	!	!	!	!	!	!	!	!	!	!	!	!LO:TX:t=P:problem:w kolejnych 7 taktach wysokości niejasne	!	!
!	!	!	!	!	!	!	!	!	!	!	!	!	!	!	!	!	!	!	!	!	!	!	!	!	!	!LO:TX:t=h	!	!
4E-\	5 3	.	4r	.	4r	.	4r	.	2.e-\	Ky-	.	2.e-\	Ky-	2.g\	Ky-	2.b-\	Ky-	2.ee-\	.	2.gg\	.	2.g/	.	2.b-\	.	2b-\	2.gg\	.
!	!	!	!	!	!	!LO:DY:a:t=pio	!	!LO:DY:a:t=pio	!	!	!	!	!	!	!	!	!	!	!	!	!	!	!	!	!	!	!	!
4r	.	.	4e-\	.	4g/	p	4b-\	p	.	.	.	.	.	.	.	.	.	.	.	.	.	.	.	.	.	.	.	.
!	!	!	!	!	!	!	!	!	!	!	!	!	!	!	!	!	!	!	!	!	!	!	!	!	!	!LO:TX:t=h	!	!
!	!	!	!	!	!	!	!	!	!	!	!	!	!	!	!	!	!	!	!	!	!	!	!	!	!	!LO:N:acc=#	!	!
2r	.	.	4e-\	.	4g/	.	4b-\	.	.	.	.	.	.	.	.	.	.	.	.	.	.	.	.	.	.	2bn\	.	.
.	.	.	4f\	.	4a-/	.	4bn\	.	4d\	-ri-	.	4f\	-ri-	4a-\	-ri-	4bn\	-ri-	4ff\	.	4aa-\	.	4a-X/	.	4bX\	.	.	4aa-\	.
*	*	*	*	*	*	*	*custos:cc	*	*	*	*	*	*	*	*	*	*	*	*	*	*	*	*	*	*	*	*	*
!	!	!	!	!	!	!	!LO:LB:g=original	!	!	!	!	!	!	!	!	!	!	!	!	!	!	!	!	!	!	!	!	!
=13	=13	=13	=13	=13	=13	=13	=13	=13	=13	=13	=13	=13	=13	=13	=13	=13	=13	=13	=13	=13	=13	=13	=13	=13	=13	=13	=13	=13
!	!	!	!	!	!	!	!	!	!	!	!	!	!	!	!	!	!	!	!	!	!	!	!	!	!	!LO:TX:t=c	!	!
4C/	5 3	.	4e-\	.	4g/	.	4.ccsSSS\	.	2c\	-e	.	2e-\	-e	4g\	-e	4.ccsSSS\	-e	2ee-\	.	2gg\	.	2g/	.	(4.cc\	.	4.cc\	2gg\	.
4r	.	.	4r	.	4r	.	.	.	.	.	.	.	.	4r	.	.	.	.	.	.	.	.	.	.	.	.	.	.
!	!	!	!	!	!	!	!	!	!	!	!	!	!	!	!	!	!	!	!	!	!	!	!	!	!	!LO:TX:t=d	!	!
.	.	.	.	.	.	.	8dd\	.	.	.	.	.	.	.	.	8dd\	e-	.	.	.	.	.	.	8dd\)	.	8dd\	.	.
4r	.	.	4r	.	4r	.	(8ff\L	.	4r	.	.	4r	.	4r	.	(8ff\L	.	4r	.	4r	.	4r	.	8ff\L	.	8ffL\	4r	.
.	.	.	.	.	.	.	8ee-\	.	.	.	.	.	.	.	.	8ee-\J)	.	.	.	.	.	.	.	(8ee-\	.	(8ee-\	.	.
4B-\	5 3	.	4A-/	.	4a-/	.	8dd\)	.	4A-\	e-	.	4f\	e-	8b-\L	e-	(8dd\L	.	4e-/	.	4ee-\	.	8b-\L	.	8dd\)	.	8dd\	4ee-\	.
.	.	.	.	.	.	.	8cc\J	.	.	.	.	.	.	8a-\J	.	8cc\J)	.	.	.	.	.	8a-\J	.	8cc\J	.	8ccJ\)	.	.
!	!	!	!	!	!	!	!	!	!	!	!	!	!	!	!	!LO:LB:g=original	!	!	!	!	!	!	!	!	!	!	!	!
=14	=14	=14	=14	=14	=14	=14	=14	=14	=14	=14	=14	=14	=14	=14	=14	=14	=14	=14	=14	=14	=14	=14	=14	=14	=14	=14	=14	=14
4B-\	6 4	.	4B-/	.	4r	.	4r	.	2B-\	-lei-	.	2e-\	-lei-	2g\	-lei-	2b-\	-lei-	2g/	.	2ee-\	.	2g/	.	2b-X\	.	2b-\	2ee-\	.
4r	.	.	4r	.	4g/	.	4b-\	.	.	.	.	.	.	.	.	.	.	.	.	.	.	.	.	.	.	.	.	.
.	.	.	.	.	.	.	.	.	.	.	.	.	.	.	.	8qqb-/	.	.	.	.	.	.	.	.	.	.	.	.
4BB-/	7 5	.	4B-/	.	4r	.	4r	.	2BB-/	.	.	(4f\	.	2f\	.	2a-T\	.	2b-/	.	2ff\	.	2f/	.	2a-X\	.	2a-\	2ff\	.
4r	.	.	4r	.	4f/	.	4a-\	.	.	.	.	4d\)	.	.	.	.	.	.	.	.	.	.	.	.	.	.	.	.
!	!	!	!	!	!	!	!	!	!	!	!	!	!	!	!	!	!	!	!	!	!	!	!	!	!	!LO:LB:g=original	!	!
=15	=15	=15	=15	=15	=15	=15	=15	=15	=15	=15	=15	=15	=15	=15	=15	=15	=15	=15	=15	=15	=15	=15	=15	=15	=15	=15	=15	=15
4E-\	5 3	.	4B-/	.	4r	.	4r	.	4E-\	-son	.	2B-\	-son	2e-\	-son	2g\	-son	4g/	.	4ee-\	.	4e-/	.	4g/	.	4g/	4ee-\	.
4r	.	.	4r	.	4e-/	.	4g/	.	4r	.	.	.	.	.	.	.	.	4r	.	4r	.	4r	.	4r	.	4r	4r	.
2r	.	.	2r	.	4e-/	.	4g/	.	2r	.	.	2r	.	2r	.	2r	.	2r	.	2r	.	2r	.	2r	.	2r	2r	.
.	.	.	.	.	4f/	.	4a-/	.	.	.	.	.	.	.	.	.	.	.	.	.	.	.	.	.	.	.	.	.
!	!	!	!	!	!	!	!	!	!	!	!	!	!	!LO:LB:g=original	!	!	!	!	!	!	!	!LO:LB:g=original	!	!	!	!	!LO:LB:g=original	!
=16	=16	=16	=16	=16	=16	=16	=16	=16	=16	=16	=16	=16	=16	=16	=16	=16	=16	=16	=16	=16	=16	=16	=16	=16	=16	=16	=16	=16
4E-\	5 3	.	4r	.	4r	.	4r	.	2.e-\	Ky-	.	2.e-\	Ky-	2.g\	Ky-	2.b-\	Ky-	2.ee-\	.	2.gg\	.	2.g/	.	2.b-\	.	2.b-\	2.gg\	.
4r	.	.	4e-\	.	4g/	.	(4b-\	.	.	.	.	.	.	.	.	.	.	.	.	.	.	.	.	.	.	.	.	.
2r	.	.	4e-\	.	4g/	.	4b-\	.	.	.	.	.	.	.	.	.	.	.	.	.	.	.	.	.	.	.	.	.
.	.	.	4d\	.	4a-/	.	4bn\)	.	4d\	-ri-	.	4f\	-ri-	4a-X\	-ri-	4bn\	-ri-	4ff\	.	4aa-\	.	4a-X/	.	4bX\	.	4cc#X\	4aa-\	.
!	!	!	!LO:LB:g=original	!	!	!	!	!	!	!	!	!LO:LB:g=original	!	!	!	!	!	!	!	!	!	!	!	!	!	!	!	!
=17	=17	=17	=17	=17	=17	=17	=17	=17	=17	=17	=17	=17	=17	=17	=17	=17	=17	=17	=17	=17	=17	=17	=17	=17	=17	=17	=17	=17
4A-\	5 3	.	2c\	.	2g/	.	4.ccsSSS\	.	2c\	-e	.	4e-\	-e	4g\	-e	4.ccsSSS\	-e	2ee-\	.	2gg\	.	2g/	.	4.ccsSSS\	.	4.ccsSSS\	2gg\	.
4r	.	.	.	.	.	.	.	.	.	.	.	4r	.	4r	.	.	.	.	.	.	.	.	.	.	.	.	.	.
.	.	.	.	.	.	.	8dd\	.	.	.	.	.	.	.	.	8dd\	.	.	.	.	.	.	.	8dd\	.	8dd\	.	.
2r	.	.	4r	.	4r	.	8ff\L	.	4r	.	.	4r	.	4r	.	(8ff\L	.	4r	.	4r	.	4r	.	8ff\L	.	8ffL\	4r	.
.	.	.	.	.	.	.	8ee-\	.	.	.	.	.	.	.	.	8ee-\J)	.	.	.	.	.	.	.	(8ee-\	.	(8ee-\	.	.
.	.	.	4c\	.	4f/	.	8cc\	.	4A-\	e-	.	4c\	e-	4f\	e-	(8cc\L	e-	4ff\	.	4aa-\	.	4f/	.	8cc\)	.	8cc\	4aa-\	.
.	.	.	.	.	.	.	8a-\J	.	.	.	.	.	.	.	.	8a-\J)	.	.	.	.	.	.	.	8a-\J	.	8a-J\)	.	.
!LO:LB:g=original	!	!	!	!	!	!	!	!	!LO:LB:g=original	!	!	!	!	!	!	!	!	!	!	!	!	!	!	!	!	!	!	!
=18	=18	=18	=18	=18	=18	=18	=18	=18	=18	=18	=18	=18	=18	=18	=18	=18	=18	=18	=18	=18	=18	=18	=18	=18	=18	=18	=18	=18
4B-\	6 4	.	4B-/	.	4r	.	4r	.	2B-\	-lei-	.	2B-\	-lei-	2e-\	-lei-	(>2g/	-lei-	2ee-\	.	2gg\	.	2e-/	.	2g/	.	2g/	2gg\	.
4r	.	.	4r	.	4e-/	.	4g/	.	.	.	.	.	.	.	.	.	.	.	.	.	.	.	.	.	.	.	.	.
!	!	!	!	!	!	!	!	!	!	!	!	!	!	!	!	!	!	!	!	!	!	!	!	!LO:TX:a:i:t=Solo	!	!	!	!
4BB-/	7 5	.	4A-/	.	4r	.	4r	.	2BB-/	.	.	2An\	.	2d\	.	2fT/)	.	2b-/	.	2ff\	.	2d/	.	2f/	.	2f/	2ff\	.
4r	.	.	4r	.	4d/	.	4f/	.	.	.	.	.	.	.	.	.	.	.	.	.	.	.	.	.	.	.	.	.
!	!	!	!	!	!	!	!	!	!	!	!	!	!	!	!	!	!	!LO:LB:g=original	!	!LO:LB:g=original	!	!	!	!	!	!	!	!
=19	=19	=19	=19	=19	=19	=19	=19	=19	=19	=19	=19	=19	=19	=19	=19	=19	=19	=19	=19	=19	=19	=19	=19	=19	=19	=19	=19	=19
*	*	*	*	*	*	*	*^	*	*	*	*	*	*	*	*	*	*	*	*	*	*	*	*	*	*	*	*	*
*	*	*	*	*	*	*	*tremolo	*cue	*	*	*	*	*	*	*	*	*	*	*	*	*	*	*	*	*	*	*	*	*
4E-\	5 3	.	4E-/	.	4e-/	.	(<8g/L	8ee-/L	.	2E-\	-son	.	4B-\	-son	4B-/	-son	2e-/	-son	1g	.	2ee-\	.	4e-/	.	(8ee-\L	.	8ee-\L	2ee-\	.
.	.	.	.	.	.	.	8B-/	8bb-/J	.	.	.	.	.	.	.	.	.	.	.	.	.	.	.	.	8bb-\J)	.	8bb-\J	.	.
4r	.	.	4r	.	4e-/	.	8g/	2bb-/	.	.	.	.	4r	.	4r	.	.	.	.	.	.	.	4r	.	2bb-\	.	2bb-\	.	.
.	.	.	.	.	.	.	8B-/J)	.	.	.	.	.	.	.	.	.	.	.	.	.	.	.	.	.	.	.	.	.	.
4E-\	5 3	.	4E-/	.	4e-/	.	(<8g/L	.	.	2r	.	.	2r	.	2r	.	2r	.	.	.	2r	.	2r	.	.	.	.	2r	.
.	.	.	.	.	.	.	8B-/	.	.	.	.	.	.	.	.	.	.	.	.	.	.	.	.	.	.	.	.	.	.
4r	.	.	4r	.	4e-/	.	8g/	8gg/L	.	.	.	.	.	.	.	.	.	.	.	.	.	.	.	.	(8gg\L	.	8gg\L	.	.
.	.	.	.	.	.	.	8B-/J)	8ee-/J	.	.	.	.	.	.	.	.	.	.	.	.	.	.	.	.	8ee-\J)	.	8ee-\J	.	.
!	!	!	!	!	!LO:LB:g=original	!	!	!	!	!	!	!	!	!	!	!	!	!	!	!	!	!	!	!	!	!	!	!	!
=20	=20	=20	=20	=20	=20	=20	=20	=20	=20	=20	=20	=20	=20	=20	=20	=20	=20	=20	=20	=20	=20	=20	=20	=20	=20	=20	=20	=20	=20
!	!	!	!	!	!	!	!	!	!	!	!	!	!	!	!	!	!	!	!	!	!LO:TX:a:i:t=Solo	!	!	!	!	!	!	!LO:TX:a:i:rj:t=Solo	!
4BB-/	7_ 5_	.	4B-/	.	4f/	.	(<8a-/L	8ffL/	.	2.B-\	Ky-	.	2.f\	Ky-	2.a-X\	Ky-	2.dd\	Ky-	2.b-/	.	8ff\L	.	4B-/	.	(8ee-\L	.	8ee-\L	(8ff\L	.
.	.	.	.	.	.	.	8B-/	8bb-/J	.	.	.	.	.	.	.	.	.	.	.	.	8bb-\J	.	.	.	8dd\J)	.	8dd\J	8bb-\J)	.
4r	.	.	4r	.	4f/	.	8a-/	2bb- 2dd/	.	.	.	.	.	.	.	.	.	.	.	.	2bb-\	.	4d/	.	2dd\	.	2dd\	2bb-\	.
.	.	.	.	.	.	.	8B-/J)	.	.	.	.	.	.	.	.	.	.	.	.	.	.	.	.	.	.	.	.	.	.
4BB-/	.	.	4B-/	.	4f/	.	(<8a-/L	.	.	.	.	.	.	.	.	.	.	.	.	.	.	.	4f/	.	.	.	.	.	.
.	.	.	.	.	.	.	8B-/	.	.	.	.	.	.	.	.	.	.	.	.	.	.	.	.	.	.	.	.	.	.
*	*	*	*	*	*	*	*	*Xtuplet	*	*	*	*	*	*	*	*	*	*	*	*	*	*	*	*	*	*	*	*	*
4r	.	.	4r	.	4f/	.	8a-/	12aa-/L	.	4B-\	-ri-	.	4f\	-ri-	4a-\	-ri-	4dd\	-ri-	4b-/	.	8aa-\L	.	4d/	.	(8ff\L	.	8ff\L	8aa-\L	.
.	.	.	.	.	.	.	.	12ff/	.	.	.	.	.	.	.	.	.	.	.	.	.	.	.	.	.	.	.	.	.
.	.	.	.	.	.	.	8B-/J)	.	.	.	.	.	.	.	.	.	.	.	.	.	8ff\J	.	.	.	8dd\J)	.	8dd\J	8ff\J	.
.	.	.	.	.	.	.	.	12dd/J	.	.	.	.	.	.	.	.	.	.	.	.	.	.	.	.	.	.	.	.	.
!	!	!	!	!	!	!	!LO:LB:g=original	!LO:LB:g=original	!	!	!	!	!	!	!	!	!	!	!	!	!	!	!	!	!LO:LB:g=original	!	!	!	!
=21	=21	=21	=21	=21	=21	=21	=21	=21	=21	=21	=21	=21	=21	=21	=21	=21	=21	=21	=21	=21	=21	=21	=21	=21	=21	=21	=21	=21	=21
4E-\	5_ 3_	.	4B-/	.	4e-/	.	(<8g/L	8ee-/L	.	2E-\	-e	.	2B-\	-e	2g\	-e	(4ee-\	-e	2g/	.	2ee-\	.	4E-/	.	8ee-\L	.	8ee-\L	2ee-\	.
.	.	.	.	.	.	.	8B-/	8bb-/J	.	.	.	.	.	.	.	.	.	.	.	.	.	.	.	.	8bb-\J	.	8bb-\J	.	.
4r	.	.	4r	.	4e-/	.	8g/	4.bb-/	.	.	.	.	.	.	.	.	4b-\)	.	.	.	.	.	4G/	.	4.bb-\	.	4.bb-\	.	.
.	.	.	.	.	.	.	8B-/J)	.	.	.	.	.	.	.	.	.	.	.	.	.	.	.	.	.	.	.	.	.	.
4E-\	.	.	4B-/	.	4e-/	.	(<8g/L	.	.	2r	.	.	2r	.	2r	.	2r	.	2r	.	2r	.	4B-/	.	.	.	.	2r	.
.	.	.	.	.	.	.	8B-/	16ccc/LL	.	.	.	.	.	.	.	.	.	.	.	.	.	.	.	.	(16ccc\LL	.	16ccc\LL	.	.
.	.	.	.	.	.	.	.	16bb-/JJ	.	.	.	.	.	.	.	.	.	.	.	.	.	.	.	.	16bb-\JJ)	.	16bb-\JJ	.	.
4r	.	.	4r	.	4e-/	.	8g/	16aa-/LL	.	.	.	.	.	.	.	.	.	.	.	.	.	.	4G/	.	(16aa-\LL	.	16aa-\LL	.	.
.	.	.	.	.	.	.	.	16gg/	.	.	.	.	.	.	.	.	.	.	.	.	.	.	.	.	16gg\	.	(16gg\	.	.
.	.	.	.	.	.	.	8B-/J)	16ff/	.	.	.	.	.	.	.	.	.	.	.	.	.	.	.	.	16ff\)	.	16ff\	.	.
.	.	.	.	.	.	.	.	16ee-/JJ	.	.	.	.	.	.	.	.	.	.	.	.	.	.	.	.	16ee-\JJ	.	16ee-\JJ)	.	.
!	!	!	!	!	!	!	!	!	!	!	!	!	!	!	!	!	!	!	!	!	!	!	!	!	!	!	!LO:LB:g=original	!	!
=22	=22	=22	=22	=22	=22	=22	=22	=22	=22	=22	=22	=22	=22	=22	=22	=22	=22	=22	=22	=22	=22	=22	=22	=22	=22	=22	=22	=22	=22
4BB-/	7_ 5_	.	4B-/	.	4f/	.	(<8a-/L	8ffL/	.	1B-	e-	.	1f	e-	1a-	e-	1ee-	e-	1b-	.	(8ff\L	.	4F/	.	(8ee-\L	.	(8ee-\L	(8ff\L	.
.	.	.	.	.	.	.	8B-/	8bb-/J	.	.	.	.	.	.	.	.	.	.	.	.	8bb-\J)	.	.	.	8dd\J)	.	8dd\J)	8bb-\J)	.
4r	.	.	4r	.	4f/	.	8a-/	2bb-/	.	.	.	.	.	.	.	.	.	.	.	.	2bb-\	.	4B-/	.	2dd\	.	2dd\	2bb-\	.
.	.	.	.	.	.	.	8B-/J)	.	.	.	.	.	.	.	.	.	.	.	.	.	.	.	.	.	.	.	.	.	.
4BB-/	.	.	4B-/	.	4f/	.	(<8a-/L	.	.	.	.	.	.	.	.	.	.	.	.	.	.	.	4D/	.	.	.	.	.	.
.	.	.	.	.	.	.	8B-/	.	.	.	.	.	.	.	.	.	.	.	.	.	.	.	.	.	.	.	.	.	.
4r	.	.	4r	.	4f/	.	8a-/	12aa-/L	.	.	.	.	.	.	.	.	.	.	.	.	(8aa-\L	.	4B-/	.	(8ff\L	.	8ff\L	8aa-\L	.
.	.	.	.	.	.	.	.	12ff/	.	.	.	.	.	.	.	.	.	.	.	.	.	.	.	.	.	.	.	.	.
.	.	.	.	.	.	.	8B-/J)	.	.	.	.	.	.	.	.	.	.	.	.	.	8ff\J)	.	.	.	8dd\J)	.	8dd\J	8ff\J	.
.	.	.	.	.	.	.	.	12dd/J	.	.	.	.	.	.	.	.	.	.	.	.	.	.	.	.	.	.	.	.	.
*	*	*	*	*	*	*	*Xtremolo	*Xcue	*	*	*	*	*	*	*	*	*	*	*	*	*	*	*	*	*	*	*	*	*
*	*	*	*	*	*	*	*v	*v	*	*	*	*	*	*	*	*	*	*	*	*	*	*	*	*	*	*	*	*	*
=23	=23	=23	=23	=23	=23	=23	=23	=23	=23	=23	=23	=23	=23	=23	=23	=23	=23	=23	=23	=23	=23	=23	=23	=23	=23	=23	=23	=23
*	*	*	*tremolo	*	*	*	*	*	*	*	*	*	*	*	*	*	*	*	*	*	*	*2\right	*	*	*	*	*	*
!LO:TX:a:i:t=Tut:rj	!	!	!	!LO:DY:a:t=for	!	!LO:DY:a:t=for	!	!	!	!	!	!	!	!	!	!	!	!	!	!LO:TX:a:i:t=Tutti	!	!	!	!	!	!	!LO:TX:a:i:t=Tutti	!
4E-\	5_ 3_	.	(8E-/L	f	8G/L	f	8e-/	.	2E-\	-lei-	.	2B-\	-lei-	2g\	-lei-	2ee-\	-lei-	1g	.	1ee-	.	2b-\	.	2ee-\	.	2ee-\	1ee-	.
.	.	.	8G/	.	8B-/	.	4g/	.	.	.	.	.	.	.	.	.	.	.	.	.	.	.	.	.	.	.	.	.
4E-\	.	.	8E-/	.	8e-/	.	.	.	.	.	.	.	.	.	.	.	.	.	.	.	.	.	.	.	.	.	.	.
.	.	.	8G/J)	.	8B-/J	.	4b-/	.	.	.	.	.	.	.	.	.	.	.	.	.	.	.	.	.	.	.	.	.
4E-\	.	.	(8E-/L	.	8G/L	.	.	.	2E-\	-son	.	2B-\	-son	2g\	-son	2ee-\	-son	.	.	.	.	4b-\	.	4ee-\	.	4ee-\	.	.
.	.	.	8G/	.	8B-/	.	4ee-\	.	.	.	.	.	.	.	.	.	.	.	.	.	.	.	.	.	.	.	.	.
4E-\	.	.	8E-/	.	8e-/	.	.	.	.	.	.	.	.	.	.	.	.	.	.	.	.	4b-\	.	4ee-\	.	4ee-\	.	.
.	.	.	8G/J)	.	8B-/J	.	8gg\	.	.	.	.	.	.	.	.	.	.	.	.	.	.	.	.	.	.	.	.	.
!	!	!	!	!	!	!	!	!	!	!	!	!	!	!	!	!LO:LB:g=original	!	!	!	!	!	!	!	!	!	!	!	!
=24	=24	=24	=24	=24	=24	=24	=24	=24	=24	=24	=24	=24	=24	=24	=24	=24	=24	=24	=24	=24	=24	=24	=24	=24	=24	=24	=24	=24
4E-\	7_ 5_ 2_	.	(8D/L	.	8A-X/L	.	8ff\	.	2.E-\	Ky-	.	2.f\	Ky-	2.a-\	Ky-	2.dd\	Ky-	1b-	.	1ff	.	1a-	.	1dd	.	1dd	1ff	.
.	.	.	8F/	.	8B-/	.	4aa-X\	.	.	.	.	.	.	.	.	.	.	.	.	.	.	.	.	.	.	.	.	.
4E-\	.	.	8D/	.	8d/	.	.	.	.	.	.	.	.	.	.	.	.	.	.	.	.	.	.	.	.	.	.	.
.	.	.	8F/J)	.	8B-/J	.	4ff\	.	.	.	.	.	.	.	.	.	.	.	.	.	.	.	.	.	.	.	.	.
4E-\	.	.	8D/L	.	8A-/L	.	.	.	.	.	.	.	.	.	.	.	.	.	.	.	.	.	.	.	.	.	.	.
.	.	.	8F/	.	8B-/	.	4dd\	.	.	.	.	.	.	.	.	.	.	.	.	.	.	.	.	.	.	.	.	.
4E-\	.	.	8D/	.	8d/	.	.	.	4E-\	-ri-	.	4f\	-ri-	4a-\	-ri-	4dd\	-ri-	.	.	.	.	.	.	.	.	.	.	.
.	.	.	8F/J	.	8B-/J	.	8a-/	.	.	.	.	.	.	.	.	.	.	.	.	.	.	.	.	.	.	.	.	.
!	!	!	!LO:LB:g=original	!	!	!	!	!	!	!	!	!	!	!	!	!	!	!	!	!	!	!LO:LB:g=original	!	!	!	!	!	!
=25	=25	=25	=25	=25	=25	=25	=25	=25	=25	=25	=25	=25	=25	=25	=25	=25	=25	=25	=25	=25	=25	=25	=25	=25	=25	=25	=25	=25
4E-\	5_ 3_	.	(8E-/L	.	8G/L	.	8g/	.	2E-\	-e	.	2B-\	-e	2g\	-e	2ee-\	-e	1g	.	1ee-	.	2b-\	.	2ee-\	.	2ee-\	1ee-	.
.	.	.	8G/	.	8B-/	.	4b-\	.	.	.	.	.	.	.	.	.	.	.	.	.	.	.	.	.	.	.	.	.
4E-\	.	.	8E-/	.	8e-/	.	.	.	.	.	.	.	.	.	.	.	.	.	.	.	.	.	.	.	.	.	.	.
.	.	.	8G/J)	.	8B-/J	.	4ee-\	.	.	.	.	.	.	.	.	.	.	.	.	.	.	.	.	.	.	.	.	.
4E-\	.	.	(8E-/L	.	8G/L	.	.	.	2E-\	e-	.	2B-\	e-	2g\	lei-	2b-\	e-	.	.	.	.	2b-\	.	2ee-\	.	2ee-\	.	.
.	.	.	8G/	.	8B-/	.	4gg\	.	.	.	.	.	.	.	.	.	.	.	.	.	.	.	.	.	.	.	.	.
4E-\	.	.	8E-/	.	8e-/	.	.	.	.	.	.	.	.	.	.	.	.	.	.	.	.	.	.	.	.	.	.	.
.	.	.	8G/J)	.	8B-/J	.	8ee-\	.	.	.	.	.	.	.	.	.	.	.	.	.	.	.	.	.	.	.	.	.
*	*	*	*Xtremolo	*	*	*	*	*	*	*	*	*	*	*	*	*	*	*	*	*	*	*	*	*	*	*	*	*
=26	=26	=26	=26	=26	=26	=26	=26	=26	=26	=26	=26	=26	=26	=26	=26	=26	=26	=26	=26	=26	=26	=26	=26	=26	=26	=26	=26	=26
4E-\	6 n4 2	.	2F/	.	(8c/L	.	8an\	.	1E-	-lei-	.	1An	-lei-	1f	.	1cc	-lei-	1ff	.	1ff	.	1a	.	1ee-	.	1ee-	1ff	.
.	.	.	.	.	8e-/	.	4cc\	.	.	.	.	.	.	.	.	.	.	.	.	.	.	.	.	.	.	.	.	.
4E-\	.	.	.	.	8f/	.	.	.	.	.	.	.	.	.	.	.	.	.	.	.	.	.	.	.	.	.	.	.
.	.	.	.	.	8e-/J)	.	4ff\	.	.	.	.	.	.	.	.	.	.	.	.	.	.	.	.	.	.	.	.	.
4E-\	.	.	2F/	.	(8c/L	.	.	.	.	.	.	.	.	.	.	.	.	.	.	.	.	.	.	.	.	.	.	.
.	.	.	.	.	8e-/	.	4aan\	.	.	.	.	.	.	.	.	.	.	.	.	.	.	.	.	.	.	.	.	.
4E-\	.	.	.	.	8f/	.	.	.	.	.	.	.	.	.	.	.	.	.	.	.	.	.	.	.	.	.	.	.
.	.	.	.	.	8e-/J)	.	8ff\	.	.	.	.	.	.	.	.	.	.	.	.	.	.	.	.	.	.	.	.	.
!LO:LB:g=original	!	!	!	!	!	!	!	!	!	!	!	!	!	!	!	!	!	!	!	!	!	!	!	!	!	!	!LO:LB:g=original	!
=27	=27	=27	=27	=27	=27	=27	=27	=27	=27	=27	=27	=27	=27	=27	=27	=27	=27	=27	=27	=27	=27	=27	=27	=27	=27	=27	=27	=27
4D\	6_ 3_	.	8F/L	.	(8d/L	.	8bb-\	.	1D	-son	.	1B-	-son	1f	-son	1dd	-son	1b-	.	1ff	.	1b-	.	1dd	.	1dd	1ff	.
.	.	.	8B-/	.	8f/	.	4ff\	.	.	.	.	.	.	.	.	.	.	.	.	.	.	.	.	.	.	.	.	.
4D\	.	.	8F/	.	8b-/	.	.	.	.	.	.	.	.	.	.	.	.	.	.	.	.	.	.	.	.	.	.	.
.	.	.	8B-/J	.	8f/J)	.	4dd\	.	.	.	.	.	.	.	.	.	.	.	.	.	.	.	.	.	.	.	.	.
!	!	!	!	!	!LO:LB:g=original	!	!	!	!	!	!	!	!	!	!	!	!	!	!	!	!	!	!	!	!	!	!	!
4D\	.	.	2F/	.	(8d/L	.	.	.	.	.	.	.	.	.	.	.	.	.	.	.	.	.	.	.	.	.	.	.
.	.	.	.	.	8f/	.	4b-\	.	.	.	.	.	.	.	.	.	.	.	.	.	.	.	.	.	.	.	.	.
4D\	.	.	.	.	8b-/	.	.	.	.	.	.	.	.	.	.	.	.	.	.	.	.	.	.	.	.	.	.	.
.	.	.	.	.	8f/J)	.	8dd\	.	.	.	.	.	.	.	.	.	.	.	.	.	.	.	.	.	.	.	.	.
!	!	!	!	!	!	!	!LO:LB:g=original	!	!	!	!	!	!	!	!	!	!	!	!	!	!	!	!	!	!	!	!	!
=28	=28	=28	=28	=28	=28	=28	=28	=28	=28	=28	=28	=28	=28	=28	=28	=28	=28	=28	=28	=28	=28	=28	=28	=28	=28	=28	=28	=28
4E-\	6 n4 2	.	4c\	.	4g/	.	(8dd\L	.	4E-\	Ky-	.	4An/	Ky-	4f\	Ky-	4cc\	Ky-	4ff\	.	4ff\	.	1f	.	4cc\	.	4cc\	4ff\	.
.	.	.	.	.	.	.	8cc\J)	.	.	.	.	.	.	.	.	.	.	.	.	.	.	.	.	.	.	.	.	.
4D\	6 3	.	4B-\	.	4f/	.	4b-\	.	4D\	-ri-	.	4F/	-ri-	4f\	-ri-	4b-\	-ri-	4r	.	4ff\	.	.	.	4b-\	.	4b-\	4ff\	.
4An\	6 5	.	4f\	.	4cc/	.	8ff\L	.	4An\	-e	.	4c\	-e	4f\	-e	(4ee-\	-e	4ff\	.	4ff\	.	.	.	4ee-\	.	4ee-\	4ff\	.
.	.	.	.	.	.	.	8ee-\J	.	.	.	.	.	.	.	.	.	.	.	.	.	.	.	.	.	.	.	.	.
4B-\	5 3	.	4f\	.	4b-/	.	8dd\	.	4B-\	e-	.	4B-\	e-	4f\	e-	4dd\)	.	4r	.	4ff\	.	.	.	4dd\	.	4dd\	4ff\	.
.	.	.	.	.	.	.	16r	.	.	.	.	.	.	.	.	.	.	.	.	.	.	.	.	.	.	.	.	.
.	.	.	.	.	.	.	16dd\	.	.	.	.	.	.	.	.	.	.	.	.	.	.	.	.	.	.	.	.	.
=29	=29	=29	=29	=29	=29	=29	=29	=29	=29	=29	=29	=29	=29	=29	=29	=29	=29	=29	=29	=29	=29	=29	=29	=29	=29	=29	=29	=29
4E-\	6_ 3_	.	4c\	.	4g/	.	(8cc\L	.	1E-	-lei-	.	1c	-lei-	1g	-lei-	(2.cc\	lei-	1ee-	.	1gg	.	1g	.	2.cc\	.	2.cc\	1gg	.
.	.	.	.	.	.	.	8gg\J)	.	.	.	.	.	.	.	.	.	.	.	.	.	.	.	.	.	.	.	.	.
4E-\	.	.	4c\	.	4g/	.	2gg\	.	.	.	.	.	.	.	.	.	.	.	.	.	.	.	.	.	.	.	.	.
4E-\	.	.	4c\	.	4g/	.	.	.	.	.	.	.	.	.	.	.	.	.	.	.	.	.	.	.	.	.	.	.
4E-\	.	.	4e-\	.	4g/	.	(8ee-\L	.	.	.	.	.	.	.	.	4b-\)	.	.	.	.	.	.	.	4b-\	.	4b-\	.	.
.	.	.	.	.	.	.	8cc\J)	.	.	.	.	.	.	.	.	.	.	.	.	.	.	.	.	.	.	.	.	.
!	!	!	!	!	!	!	!	!	!	!	!	!LO:LB:g=original	!	!LO:LB:g=original	!	!	!	!	!	!	!	!	!	!	!	!	!	!
=30	=30	=30	=30	=30	=30	=30	=30	=30	=30	=30	=30	=30	=30	=30	=30	=30	=30	=30	=30	=30	=30	=30	=30	=30	=30	=30	=30	=30
4F\	6_ 4_	.	4f\	.	2d/	.	(2b-\	.	2F\	-son	.	2c\	-son	2g\	-[so]n	2an\	-son	2ff\	.	2ff\	.	2d/	.	2b-\	.	2b-\	2ff\	.
4F\	.	.	4f\	.	.	.	.	.	.	.	.	.	.	.	.	.	.	.	.	.	.	.	.	.	.	.	.	.
8F\L	5 n3r	.	8f\L	.	4c/	.	4an\)	.	2r	.	.	2r	.	2r	.	2r	.	2r	.	2r	.	4c/	.	4a\	.	4an\	2r	.
8E-\	.	.	(8e-\	.	.	.	.	.	.	.	.	.	.	.	.	.	.	.	.	.	.	.	.	.	.	.	.	.
!	!	!	!	!	!	!	!	!	!	!	!	!	!	!	!	!	!	!	!	!	!	!	!	!LO:TX:a:i:t=Solo	!	!	!	!
8D\	.	.	8d\)	.	4r	.	4r	.	.	.	.	.	.	.	.	.	.	.	.	.	.	4r	.	4r	.	4r	.	.
8C\J	.	.	8c\J	.	.	.	.	.	.	.	.	.	.	.	.	.	.	.	.	.	.	.	.	.	.	.	.	.
=31	=31	=31	=31	=31	=31	=31	=31	=31	=31	=31	=31	=31	=31	=31	=31	=31	=31	=31	=31	=31	=31	=31	=31	=31	=31	=31	=31	=31
*	*	*	*	*	*	*	*^	*	*	*	*	*	*	*	*	*	*	*	*	*	*	*	*	*	*	*	*	*
!LO:TX:a:i:rj:t=Solo	!	!	!	!LO:DY:a:t=pi	!	!	!	!	!LO:DY:a	!	!	!	!LO:TX:a:t=4	!	!	!	!LO:TX:a:i:rj:t=Solo	!	!LO:TX:a:t=8	!	!LO:TX:a:t=8	!	!LO:TX:a:i:t=Solo	!	!	!	!	!LO:TX:a:t=8	!
4BB-/	5_ 3_	.	2f\	p	8r	.	8rf	2dd/	pp	00r	.	.	00r	.	2b-\	Chris-	2dd\	Chri-	00r	.	00r	.	2b-\	.	2dd\	.	2dd\	00r	.
.	.	.	.	.	8b-|/L	.	8dd|\L	.	.	.	.	.	.	.	.	.	.	.	.	.	.	.	.	.	.	.	.	.	.
4r	.	.	.	.	(8f/	.	(8b-\	.	.	.	.	.	.	.	.	.	.	.	.	.	.	.	.	.	.	.	.	.	.
.	.	.	.	.	8d/J)	.	8f\J)	.	.	.	.	.	.	.	.	.	.	.	.	.	.	.	.	.	.	.	.	.	.
4BB-/	.	.	2f\	.	8r	.	8r	2ryy	.	.	.	.	.	.	4b-\	-te	4dd\	-ste	.	.	.	.	4b-\	.	4dd\	.	4dd\	.	.
.	.	.	.	.	8d|/L	.	8f|/L	.	.	.	.	.	.	.	.	.	.	.	.	.	.	.	.	.	.	.	.	.	.
4r	.	.	.	.	(8f/	.	(8b-/	.	.	.	.	.	.	.	4b-\	e-	4dd\	e-	.	.	.	.	4b-\	.	4dd\	.	4dd\	.	.
.	.	.	.	.	8b-/J)	.	8dd/J)	.	.	.	.	.	.	.	.	.	.	.	.	.	.	.	.	.	.	.	.	.	.
*	*	*	*	*	*	*	*v	*v	*	*	*	*	*	*	*	*	*	*	*	*	*	*	*	*	*	*	*	*	*
=32	=32	=32	=32	=32	=32	=32	=32	=32	=32	=32	=32	=32	=32	=32	=32	=32	=32	=32	=32	=32	=32	=32	=32	=32	=32	=32	=32	=32
4F\	7_ 5_	.	2f\	.	8r	.	8r	.	.	.	.	.	.	(4bn\	-lei-	(4dd\	-lei-	.	.	.	.	(4bX\	.	(4dd\	.	4dd\	.	.
.	.	.	.	.	8cc|/L	.	8ee-|\L	.	.	.	.	.	.	.	.	.	.	.	.	.	.	.	.	.	.	.	.	.
4r	.	.	.	.	(8an/	.	(8cc\	.	.	.	.	.	.	4cc\)	.	4ee-\)	.	.	.	.	.	4cc\)	.	4ee-\)	.	4ee-\	.	.
.	.	.	.	.	8f/J)	.	8an\J)	.	.	.	.	.	.	.	.	.	.	.	.	.	.	.	.	.	.	.	.	.
4F\	.	.	2f\	.	8r	.	8r	.	.	.	.	.	.	2cc\	-son	2ee-\	-son	.	.	.	.	2cc\	.	2ee-\	.	2ee-\	.	.
.	.	.	.	.	8f|/L	.	8a|\L	.	.	.	.	.	.	.	.	.	.	.	.	.	.	.	.	.	.	.	.	.
4r	.	.	.	.	(8a/	.	(8cc\	.	.	.	.	.	.	.	.	.	.	.	.	.	.	.	.	.	.	.	.	.
.	.	.	.	.	8cc/J)	.	8ee-\J)	.	.	.	.	.	.	.	.	.	.	.	.	.	.	.	.	.	.	.	.	.
!	!	!	!	!	!	!	!	!	!	!	!	!	!	!	!	!	!	!	!	!	!	!	!	!LO:LB:g=original	!	!LO:LB:g=original	!	!
=33	=33	=33	=33	=33	=33	=33	=33	=33	=33	=33	=33	=33	=33	=33	=33	=33	=33	=33	=33	=33	=33	=33	=33	=33	=33	=33	=33	=33
!	!	!	!	!	!LO:TX:t=P:problem:takt zapisany repetycją, z adnotacją "bis"	!	!	!	!	!	!	!	!	!	!	!	!	!	!	!	!	!	!	!	!	!	!	!
4F\	7_ 5_	.	2f\	.	8ryy	.	8r	.	.	.	.	.	.	2cc\	Xs-	2ee-\	Chri-	.	.	.	.	2cc\	.	2ee-\	.	2ee-\	.	.
.	.	.	.	.	8cc|/Lyy	.	8ee-\L	.	.	.	.	.	.	.	.	.	.	.	.	.	.	.	.	.	.	.	.	.
4r	.	.	.	.	(y8an/yy	.	8cc\	.	.	.	.	.	.	.	.	.	.	.	.	.	.	.	.	.	.	.	.	.
.	.	.	.	.	8f/J)yy	.	8an\J	.	.	.	.	.	.	.	.	.	.	.	.	.	.	.	.	.	.	.	.	.
!	!	!	!	!	!	!	!LO:LB:g=original	!	!	!	!	!	!	!	!	!	!	!	!	!	!	!	!	!	!	!	!	!
4F\	.	.	2f\	.	8ryy	.	8r	.	.	.	.	.	.	4cc\	-te	4ee-\	-ste	.	.	.	.	4cc\	.	4ee-\	.	4ee-\	.	.
.	.	.	.	.	8f|/Lyy	.	8a|\L	.	.	.	.	.	.	.	.	.	.	.	.	.	.	.	.	.	.	.	.	.
4r	.	.	.	.	(y8a/yy	.	(8cc\	.	.	.	.	.	.	4cc\	e-	4ee-\	e-	.	.	.	.	4cc\	.	4ee-\	.	4ee-\	.	.
.	.	.	.	.	8cc/J)yy	.	8ee-\J)	.	.	.	.	.	.	.	.	.	.	.	.	.	.	.	.	.	.	.	.	.
!	!	!	!LO:LB:g=original	!	!	!	!	!	!	!	!	!	!	!	!	!LO:LB:g=original	!	!	!	!	!	!	!	!	!	!	!	!
=34	=34	=34	=34	=34	=34	=34	=34	=34	=34	=34	=34	=34	=34	=34	=34	=34	=34	=34	=34	=34	=34	=34	=34	=34	=34	=34	=34	=34
4BB-/	5_ 3_	.	2f\	.	8r	.	8r	.	.	.	.	.	.	(4cc#X\	-lei-	(4een\	-lei-	.	.	.	.	4cc#X\	.	(4eeX\	.	4ee#X\	.	.
.	.	.	.	.	8dd|\L	.	8ff|\L	.	.	.	.	.	.	.	.	.	.	.	.	.	.	.	.	.	.	.	.	.
4r	.	.	.	.	(8b-\	.	(8dd\	.	.	.	.	.	.	4dd\)	.	4ff\)	.	.	.	.	.	4dd\	.	4ff\)	.	4ff\	.	.
.	.	.	.	.	8f\J)	.	8b-\J)	.	.	.	.	.	.	.	.	.	.	.	.	.	.	.	.	.	.	.	.	.
4BB-/	.	.	2f\	.	8r	.	8r	.	.	.	.	.	.	2dd\	-son	2ff\	-son	.	.	.	.	2dd\	.	2ff\	.	2ff\	.	.
.	.	.	.	.	8f|\L	.	8d|/L	.	.	.	.	.	.	.	.	.	.	.	.	.	.	.	.	.	.	.	.	.
4r	.	.	.	.	(8b-\	.	(8f/	.	.	.	.	.	.	.	.	.	.	.	.	.	.	.	.	.	.	.	.	.
.	.	.	.	.	8dd\J)	.	8b-/J)	.	.	.	.	.	.	.	.	.	.	.	.	.	.	.	.	.	.	.	.	.
=35	=35	=35	=35	=35	=35	=35	=35	=35	=35	=35	=35	=35	=35	=35	=35	=35	=35	=35	=35	=35	=35	=35	=35	=35	=35	=35	=35	=35
4BB-/	3 5	.	4r	.	4r	.	1ff	.	4r	.	.	4r	.	4r	.	2ff\	Chri-	00r	.	00r	.	4r	.	1ff	.	1ff	00r	.
4r	.	.	4d\	.	4b-\	.	.	.	4B-\	Chris-	.	4d\	Chris-	4b-\	Xs-	.	.	.	.	.	.	4b-X\	.	.	.	.	.	.
!	!	!	!	!	!	!	!	!	!	!	!	!	!	!	!	!	!	!	!	!	!	!LO:LB:g=original	!	!	!	!	!	!
2r	.	.	(8e-\L	.	8an\L	.	.	.	8c\L	-te	.	8e-\L	-te	8an\L	-te	4ff\	-ste	.	.	.	.	(8a\L	.	.	.	.	.	.
.	.	.	8d\	.	8b-\	.	.	.	8B-\J	.	.	8d\J	.	8b-\J	.	.	.	.	.	.	.	8b-\	.	.	.	.	.	.
!	!	!	!	!	!	!	!	!	!LO:LB:g=original	!	!	!	!	!	!	!	!	!	!	!	!	!	!	!	!	!	!	!
.	.	.	8c\	.	8cc\	.	.	.	8An\L	e-	.	8c\L	e-	8cc\L	e-	4ff\	e-	.	.	.	.	8cc\	.	.	.	.	.	.
.	.	.	8e-\J)	.	8dd\J	.	.	.	8B-\J	.	.	8d\J	.	8dd\J	.	.	.	.	.	.	.	8dd\J)	.	.	.	.	.	.
!LO:LB:g=original	!	!	!	!	!	!	!	!	!	!	!	!	!	!	!	!	!	!	!	!	!	!	!	!	!	!	!	!
=36	=36	=36	=36	=36	=36	=36	=36	=36	=36	=36	=36	=36	=36	=36	=36	=36	=36	=36	=36	=36	=36	=36	=36	=36	=36	=36	=36	=36
!	!	!	!	!	!	!	!	!LO:DY:a	!	!	!	!	!	!	!	!	!	!	!	!	!	!	!	!	!	!	!	!
4F\	3 5	.	8d\L	.	8b-/L	.	4ff\	sf	4c\	-lei-	.	4e-\	-lei-	(8b-\L	-lei-	4ff\	-lei-	.	.	.	.	8b-\L	.	1ff	.	1ff	.	.
!	!	!	!	!	!	!LO:DY:a	!	!	!	!	!	!	!	!	!	!	!	!	!	!	!	!	!	!	!	!	!	!
.	.	.	8e-\J	.	8an/J	fp	.	.	.	.	.	.	.	8an\J)	.	.	.	.	.	.	.	8a\J	.	.	.	.	.	.
4r	.	.	2e- 2c\	.	2a/	>	2ff\	.	2c\	-son	.	2e-\	-son	2a\	.	2ff\	-son	.	.	.	.	2a\	.	.	.	.	.	.
2r	.	.	.	.	.	.	.	.	.	.	.	.	.	.	.	.	.	.	.	.	.	.	.	.	.	.	.	.
!	!	!	!	!	!	!	!	!LO:DY:a:rj	!	!	!	!	!	!	!	!	!	!	!	!	!	!	!	!	!	!	!	!
.	.	.	4e- 4c\	.	4a/	]]	4ff\	p	4c\	e-	.	4e-\	e-	4a\	-son	4ff\	e-	.	.	.	.	4a\	.	.	.	.	.	.
!	!	!	!	!	!LO:LB:g=original	!	!	!	!	!	!	!	!	!	!	!	!	!	!	!	!	!	!	!	!	!	!	!
=37	=37	=37	=37	=37	=37	=37	=37	=37	=37	=37	=37	=37	=37	=37	=37	=37	=37	=37	=37	=37	=37	=37	=37	=37	=37	=37	=37	=37
4BB-/	5 3	.	2d\	.	2b-/	.	1ff	.	2B-\	-lei-	.	2d\	-lei-	2b-\	Chri-	(1ff	-lei-	.	.	.	.	2b-\	.	1ff	.	1ff	.	.
4r	.	.	.	.	.	.	.	.	.	.	.	.	.	.	.	.	.	.	.	.	.	.	.	.	.	.	.	.
2r	.	.	(8e-\L	.	(8an/L	.	.	.	8c\L	.	.	8e-\L	.	8an\L	-ste	.	.	.	.	.	.	(8a\L	.	.	.	.	.	.
.	.	.	8d\	.	8b-/	.	.	.	8B-\	.	.	8d\J	.	8b-\J	.	.	.	.	.	.	.	8b-\	.	.	.	.	.	.
.	.	.	8c\	.	8cc/	.	.	.	8An\	.	.	8c\L	.	8cc\L	.	.	.	.	.	.	.	8cc\	.	.	.	.	.	.
.	.	.	8d\J)	.	8dd/J)	.	.	.	8B-\J	.	.	8d\J	.	8b-\J	.	.	.	.	.	.	.	8dd\J)	.	.	.	.	.	.
=38	=38	=38	=38	=38	=38	=38	=38	=38	=38	=38	=38	=38	=38	=38	=38	=38	=38	=38	=38	=38	=38	=38	=38	=38	=38	=38	=38	=38
!	!	!	!	!	!	!	!	!LO:DY:a	!	!	!	!	!	!	!	!	!	!	!	!	!	!	!	!	!	!	!	!
4F\	7 5	.	8d\L	.	8b-/L	.	4ff\	sfz	8B-\L	.	.	8d\L	.	8b-\L	lei-	4ff\)	-son	.	.	.	.	(8b-\L	.	4ff\	.	4ff\	.	.
!	!	!	!	!	!	!LO:DY:a	!	!	!	!	!	!	!	!	!	!	!	!	!	!	!	!	!	!	!	!	!	!
.	.	.	8e-\J	.	8an/J	fp	.	.	8c\J	-son	.	8e-\J	.	8a-\J	.	.	.	.	.	.	.	8a\J)	.	.	.	.	.	.
4r	.	.	2e-\	.	2a/	.	2ff\	.	2c\	.	.	2e-\	-son	2a-\	-son	2ff\	Chri-	.	.	.	.	2a\	.	2ff\	.	2ff\	.	.
2r	.	.	.	.	.	.	.	.	.	.	.	.	.	.	.	.	.	.	.	.	.	.	.	.	.	.	.	.
.	.	.	4e-\	.	4a/	.	4ff\	.	4c\	Chris-	.	4e-\	Chris-	4a-\	e-	4ff\	-ste	.	.	.	.	4a\	.	4ff\	.	4ff\	.	.
!	!	!	!	!	!	!	!	!	!	!	!	!	!	!LO:LB:g=original	!	!	!	!	!	!LO:LB:g=original	!	!	!	!	!	!	!	!
=39	=39	=39	=39	=39	=39	=39	=39	=39	=39	=39	=39	=39	=39	=39	=39	=39	=39	=39	=39	=39	=39	=39	=39	=39	=39	=39	=39	=39
4BB-/	5 3	.	2f\	.	8r	.	8r	.	2B-\	-te	.	2f\	-te	2dd\	-lei-	2ff\	.	2b-/	.	2ff\	.	2dd\	.	2ff\	.	2ff\	2ff\	.
!	!	!	!	!	!	!LO:DY:a:t=pia	!	!	!	!	!	!	!	!	!	!	!	!	!	!	!	!	!	!	!	!	!	!
.	.	.	.	.	8dd|\L	p	8ff|\L	.	.	.	.	.	.	.	.	.	.	.	.	.	.	.	.	.	.	.	.	.
4r	.	.	.	.	(8b-\	.	(8dd\	.	.	.	.	.	.	.	.	.	.	.	.	.	.	.	.	.	.	.	.	.
.	.	.	.	.	8f\J)	.	8b-\J)	.	.	.	.	.	.	.	.	.	.	.	.	.	.	.	.	.	.	.	.	.
4E-\	6 3	.	2g\	.	8r	.	8r	.	2E-\	e-	.	2g\	e-	2cc\	.	2ee-\	e-	2ee-\	.	2gg\	.	2cc\	.	2ee-\	.	2ee-\	2gg\	.
.	.	.	.	.	8e-/L	.	8g|/L	.	.	.	.	.	.	.	.	.	.	.	.	.	.	.	.	.	.	.	.	.
4r	.	.	.	.	8g/	.	(8cc/	.	.	.	.	.	.	.	.	.	.	.	.	.	.	.	.	.	.	.	.	.
.	.	.	.	.	8e-/J	.	8ee-/J)	.	.	.	.	.	.	.	.	.	.	.	.	.	.	.	.	.	.	.	.	.
!	!	!	!	!	!	!	!	!	!	!	!	!	!	!	!	!	!	!LO:LB:g=original	!	!	!	!	!	!	!	!	!	!
=40	=40	=40	=40	=40	=40	=40	=40	=40	=40	=40	=40	=40	=40	=40	=40	=40	=40	=40	=40	=40	=40	=40	=40	=40	=40	=40	=40	=40
4F\	6 4	.	2f\	.	8r	.	8r	.	1F	-lei-	.	2f\	-lei-	2b-\	.	(2dd\	-lei-	2b-/	.	1ff	.	2b-\	.	2dd\	.	2dd\	1ff	.
.	.	.	.	.	8f/L	.	8dd|\L	.	.	.	.	.	.	.	.	.	.	.	.	.	.	.	.	.	.	.	.	.
4r	.	.	.	.	8d/	.	(8b-\	.	.	.	.	.	.	.	.	.	.	.	.	.	.	.	.	.	.	.	.	.
.	.	.	.	.	8f/J	.	8dd\J)	.	.	.	.	.	.	.	.	.	.	.	.	.	.	.	.	.	.	.	.	.
4F\	7 5	.	2e-\	.	8r	.	8r	.	.	.	.	2e-\	.	2an\	.	2cc\)	.	2ee-\	.	.	.	2a\	.	2cc\	.	2cc\	.	.
.	.	.	.	.	8e-/L	.	8cc|\L	.	.	.	.	.	.	.	.	.	.	.	.	.	.	.	.	.	.	.	.	.
4r	.	.	.	.	8c/	.	(8an\	.	.	.	.	.	.	.	.	.	.	.	.	.	.	.	.	.	.	.	.	.
.	.	.	.	.	8e-/J	.	8cc\J)	.	.	.	.	.	.	.	.	.	.	.	.	.	.	.	.	.	.	.	.	.
!	!	!	!	!	!	!	!LO:LB:g=original	!	!	!	!	!	!	!	!	!	!	!	!	!	!	!	!	!	!	!	!	!
=41	=41	=41	=41	=41	=41	=41	=41	=41	=41	=41	=41	=41	=41	=41	=41	=41	=41	=41	=41	=41	=41	=41	=41	=41	=41	=41	=41	=41
!	!	!	!	!	!	!	!	!LO:DY:a:t=pi	!	!	!	!	!	!	!	!	!	!	!	!	!	!	!	!	!	!	!	!
2BB-/	5 3	.	4f\	.	4d/	.	4b-\	p	2BB-/	-son	.	2d\	-son	2f\	-son	2b-\	-son	2b-/	.	2ff\	.	2f/	.	2b-\	.	2b-\	2ff\	.
.	.	.	4r	.	4r	.	4r	.	.	.	.	.	.	.	.	.	.	.	.	.	.	.	.	.	.	.	.	.
2r	.	.	2r	.	2r	.	4b-\	.	2r	.	.	2r	.	2r	.	2r	.	2r	.	2r	.	2r	.	2r	.	2r	2r	.
.	.	.	.	.	.	.	4r	.	.	.	.	.	.	.	.	.	.	.	.	.	.	.	.	.	.	.	.	.
=42	=42	=42	=42	=42	=42	=42	=42	=42	=42	=42	=42	=42	=42	=42	=42	=42	=42	=42	=42	=42	=42	=42	=42	=42	=42	=42	=42	=42
!	!	!	!	!	!LO:TX:a:t=1	!	!	!	!LO:TX:a:t=1	!	!	!LO:TX:a:t=1	!	!LO:TX:a:t=1	!	!LO:TX:a:t=1	!	!LO:TX:a:t=1	!	!LO:TX:a:t=1	!	!LO:TX:a:t=1	!	!LO:TX:a:t=1	!	!LO:TX:a:t=1	!	!
4BB-/	.	.	4d\	.	1r	.	8b-|\L	.	1r	.	.	1r	.	1r	.	1r	.	1r	.	1r	.	1r	.	1r	.	1r	1r	.
.	.	.	.	.	.	.	(32b-\LL	.	.	.	.	.	.	.	.	.	.	.	.	.	.	.	.	.	.	.	.	.
.	.	.	.	.	.	.	32cc\	.	.	.	.	.	.	.	.	.	.	.	.	.	.	.	.	.	.	.	.	.
.	.	.	.	.	.	.	32b-\)	.	.	.	.	.	.	.	.	.	.	.	.	.	.	.	.	.	.	.	.	.
.	.	.	.	.	.	.	32an\JJJ	.	.	.	.	.	.	.	.	.	.	.	.	.	.	.	.	.	.	.	.	.
4r	.	.	4r	.	.	.	8b-|\L	.	.	.	.	.	.	.	.	.	.	.	.	.	.	.	.	.	.	.	.	.
.	.	.	.	.	.	.	8b-|\J	.	.	.	.	.	.	.	.	.	.	.	.	.	.	.	.	.	.	.	.	.
!	!	!	!	!	!	!	!	!LO:DY:a	!	!	!	!	!	!	!	!	!	!	!	!	!	!	!	!	!	!	!	!
2r	.	.	2r	.	.	.	8bn\L	>	.	.	.	.	.	.	.	.	.	.	.	.	.	.	.	.	.	.	.	.
.	.	.	.	.	.	.	8cc\	.	.	.	.	.	.	.	.	.	.	.	.	.	.	.	.	.	.	.	.	.
.	.	.	.	.	.	.	8a\	.	.	.	.	.	.	.	.	.	.	.	.	.	.	.	.	.	.	.	.	.
.	.	.	.	.	.	.	8f\J	]	.	.	.	.	.	.	.	.	.	.	.	.	.	.	.	.	.	.	.	.
!	!	!	!LO:LB:g=original	!	!	!	!	!	!	!	!	!	!	!	!	!	!	!	!	!	!	!	!	!	!	!	!	!
=43	=43	=43	=43	=43	=43	=43	=43	=43	=43	=43	=43	=43	=43	=43	=43	=43	=43	=43	=43	=43	=43	=43	=43	=43	=43	=43	=43	=43
!	!	!LO:DY:a:rj:t=pio	!	!	!	!	!	!LO:DY:a:t=pi	!	!	!	!	!	!	!	!LO:TX:a:i:t=Solo	!	!	!	!	!	!	!	!LO:TX:a:i:t=Solo	!	!	!	!
4E-\	5 3	p	4r	.	4r	.	4r	p	2.e-\	Ky-	.	2.e-\	Ky-	2.g\	Ky-	2.b-\	Ky-	2.ee-\	.	2.gg\	.	2.g/	.	2.b-\	.	2.b-\	2.gg\	.
!	!	!	!	!	!	!	!	!LO:DY:a	!	!	!	!	!	!	!	!	!	!	!	!	!	!	!	!	!	!	!	!
4r	.	.	4e-\	.	4g/	.	4b-\	<	.	.	.	.	.	.	.	.	.	.	.	.	.	.	.	.	.	.	.	.
2r	.	.	4e-\	.	4g/	.	4b-\	.	.	.	.	.	.	.	.	.	.	.	.	.	.	.	.	.	.	.	.	.
.	.	.	4f\	.	4a-X/	.	4bn\	[	4d\	-ri-	.	4f\	-ri-	4a-X\	-ri-	4bn\	-ri-	4ff\	.	4aa-\	.	4a-X/	.	4bX\	.	4b#X\	4aa-\	.
!	!	!	!	!	!	!	!	!	!	!	!	!LO:LB:g=original	!	!	!	!LO:LB:g=original	!	!	!	!	!	!LO:LB:g=original	!	!	!	!	!	!
=44	=44	=44	=44	=44	=44	=44	=44	=44	=44	=44	=44	=44	=44	=44	=44	=44	=44	=44	=44	=44	=44	=44	=44	=44	=44	=44	=44	=44
4C/	5 3	.	2c\	.	2g/	.	4.cc\	.	2c\	-e	.	2e-\	-e	2g\	-e	4.ccsSSS\	-e	4ee-\	.	2gg\	.	2g/	.	4.cc\	.	4.cc\	2gg\	.
4r	.	.	.	.	.	.	.	.	.	.	.	.	.	.	.	.	.	4r	.	.	.	.	.	.	.	.	.	.
.	.	.	.	.	.	.	8dd\	.	.	.	.	.	.	.	.	8dd\	.	.	.	.	.	.	.	8dd\	.	8dd\	.	.
4r	.	.	4r	.	4r	.	(8ff\L	.	4r	.	.	4r	.	4r	.	(8ff\L	.	2r	.	2r	.	4r	.	8ff\L	.	8ff\L	2r	.
.	.	.	.	.	.	.	8ee-\	.	.	.	.	.	.	.	.	8ee-\J)	.	.	.	.	.	.	.	(8ee-\	.	(8ee-\	.	.
4A-\	5 3	.	4c\	.	4a-/	.	8dd\)	.	4A-\	e-	.	4c\	e-	8b-\L	e-	(8dd\L	e-	.	.	.	.	4a-/	.	8dd\)	.	8dd\	.	.
.	.	.	.	.	.	.	8cc\J	.	.	.	.	.	.	8a-\J	.	8cc\J)	.	.	.	.	.	.	.	8cc\J	.	8cc\J)	.	.
!	!	!	!	!	!	!	!	!	!	!	!	!	!	!	!	!	!	!	!	!	!	!	!	!	!	!LO:LB:g=original	!	!
=45	=45	=45	=45	=45	=45	=45	=45	=45	=45	=45	=45	=45	=45	=45	=45	=45	=45	=45	=45	=45	=45	=45	=45	=45	=45	=45	=45	=45
4B-\	6 4	.	4B-/	.	4r	.	4r	.	2B-\	-lei-	.	1B-	-lei-	2g\	-lei-	2b-\	-lei-	2g/	.	2ee-\	.	2g/	.	2b-X\	.	2bn\	2ee-\	.
4r	.	.	4r	.	4g/	.	4b-/	.	.	.	.	.	.	.	.	.	.	.	.	.	.	.	.	.	.	.	.	.
4BB-/	7 5	.	4B-/	.	4r	.	4r	.	2BB-/	.	.	.	.	2f\	.	2a-XT\	.	2b-/	.	2ff\	.	2f/	.	2a-X\	.	2a-X\	2ff\	.
4r	.	.	4r	.	4f/	.	4a-/	.	.	.	.	.	.	.	.	.	.	.	.	.	.	.	.	.	.	.	.	.
=46	=46	=46	=46	=46	=46	=46	=46	=46	=46	=46	=46	=46	=46	=46	=46	=46	=46	=46	=46	=46	=46	=46	=46	=46	=46	=46	=46	=46
4E-\	3 5	.	4B-/	.	4r	.	4r	.	2E-\	-son	.	2B-\	-son	2e-\	-son	2g\	-son	2g/	.	2ee-\	.	2e-/	.	2g/	.	2g/	2ee-\	.
4r	.	.	4r	.	4e-/	.	4g|/	.	.	.	.	.	.	.	.	.	.	.	.	.	.	.	.	.	.	.	.	.
2r	.	.	2r	.	4e-/	.	(4g/	.	2r	.	.	2r	.	2r	.	2r	.	2r	.	2r	.	2r	.	2r	.	2r	2r	.
.	.	.	.	.	4f/	.	4a-/)	.	.	.	.	.	.	.	.	.	.	.	.	.	.	.	.	.	.	.	.	.
!LO:LB:g=original	!	!	!	!	!LO:LB:g=original	!	!	!	!LO:LB:g=original	!	!	!	!	!	!	!	!	!	!	!	!	!	!	!	!	!	!	!
=47	=47	=47	=47	=47	=47	=47	=47	=47	=47	=47	=47	=47	=47	=47	=47	=47	=47	=47	=47	=47	=47	=47	=47	=47	=47	=47	=47	=47
4E-\	5 3	.	4r	.	4r	.	4r	.	2.e-\	Ky-	.	2.e-\	Ky-	2.g\	Ky-	2.b-\	Ky-	2.ee-\	.	2.gg\	.	2.g/	.	2.b-\	.	2.b-\	2.gg\	.
4r	.	.	4e-\	.	4g/	.	4b-\	.	.	.	.	.	.	.	.	.	.	.	.	.	.	.	.	.	.	.	.	.
2r	.	.	4e-\	.	4g/	.	(4b-\	.	.	.	.	.	.	.	.	.	.	.	.	.	.	.	.	.	.	.	.	.
.	.	.	4f\	.	4a-X/	.	4bn\)	.	4d\	-ri-	.	4e-\	-ri-	4a-\	-ri-	4bn\	-ri-	4ff\	.	4aa-\	.	4a-/	.	4bX\	.	4b#X\	4aa-\	.
!	!	!	!	!	!	!	!LO:LB:g=original	!	!	!	!	!	!	!	!	!	!	!	!	!	!	!	!	!LO:LB:g=original	!	!	!LO:LB:g=original	!
=48	=48	=48	=48	=48	=48	=48	=48	=48	=48	=48	=48	=48	=48	=48	=48	=48	=48	=48	=48	=48	=48	=48	=48	=48	=48	=48	=48	=48
4C/	5 3	.	2c\	.	2g/	.	8.ccsSSS\L	.	2c\	-e	.	2e-\	-e	2g\	-e	4.cc\	-e	2ee-\	.	2gg\	.	2g/	.	4.cc\	.	4.cc\	2gg\	.
.	.	.	.	.	.	.	16dd\Jk	.	.	.	.	.	.	.	.	.	.	.	.	.	.	.	.	.	.	.	.	.
4r	.	.	.	.	.	.	(8ff\L	.	.	.	.	.	.	.	.	.	.	.	.	.	.	.	.	.	.	.	.	.
.	.	.	.	.	.	.	8ee-\J)	.	.	.	.	.	.	.	.	8ee-\	e-	.	.	.	.	.	.	8ee-\	.	8ee-\	.	.
4r	.	.	4r	.	4r	.	(8dd\L	.	4r	.	.	4r	.	4r	.	8dd\L	.	4r	.	4r	.	4r	.	8dd\L	.	8dd\L	4r	.
.	.	.	.	.	.	.	8cc\	.	.	.	.	.	.	.	.	8cc\	.	.	.	.	.	.	.	(8cc\	.	(8cc\	.	.
4A-\	5 3	.	4c\	.	4f/	.	8b-\)	.	4A-\	e-	.	4c\	e-	4f\	e-	8b-\	.	4b-/	.	4ff\	.	4f/	.	8b-X\)	.	8bn\)	4ff\	.
!	!	!	!	!	!	!	!	!	!LO:TX:t=P:problem:wykreślony takt	!	!	!	!	!	!	!	!	!	!	!	!	!	!	!	!	!	!	!
.	.	.	.	.	.	.	8a-\J	.	.	.	.	.	.	.	.	8a-X\J	.	.	.	.	.	.	.	8a-X\J	.	8a-X\J	.	.
=49	=49	=49	=49	=49	=49	=49	=49	=49	=49	=49	=49	=49	=49	=49	=49	=49	=49	=49	=49	=49	=49	=49	=49	=49	=49	=49	=49	=49
4B-\	6 4	.	4B-/	.	4r	.	4r	.	2B-\	-lei-	.	2B-\	-lei-	(2e-\	-lei-	(2g/	-lei-	2ee-\	.	2gg\	.	2e-/	.	2g/	.	2g/	2gg\	.
4r	.	.	4r	.	4e-/	.	4g/	.	.	.	.	.	.	.	.	.	.	.	.	.	.	.	.	.	.	.	.	.
!	!	!	!	!	!	!	!	!	!	!	!	!	!	!	!	!	!	!	!	!	!	!	!	!LO:TX:a:i:t=Solo	!	!	!	!
4BB-/	7 5	.	4B-/	.	4r	.	4r	.	(2BB-/	.	.	2A-\	.	2d\)	.	2f/)	.	2b-/	.	2ff\	.	2d/	.	2f/	.	2f/	2ff\	.
4r	.	.	4r	.	4d/	.	4f/	.	.	.	.	.	.	.	.	.	.	.	.	.	.	.	.	.	.	.	.	.
!	!	!	!	!	!	!	!	!	!	!	!	!	!	!	!	!	!	!LO:LB:g=original	!	!LO:LB:g=original	!	!	!	!	!	!	!	!
=50	=50	=50	=50	=50	=50	=50	=50	=50	=50	=50	=50	=50	=50	=50	=50	=50	=50	=50	=50	=50	=50	=50	=50	=50	=50	=50	=50	=50
*	*	*	*	*	*	*	*^	*	*	*	*	*	*	*	*	*	*	*	*	*	*	*	*	*	*	*	*	*
*	*	*	*	*	*	*	*tremolo	*cue	*	*	*	*	*	*	*	*	*	*	*	*	*	*	*	*	*	*	*	*	*
!LO:TX:a:i:t=Tasto	!	!	!	!	!	!	!	!	!LO:DY:a:t=pio	!	!	!	!	!	!	!	!	!	!	!	!	!	!	!	!	!	!	!	!
4E-\	.	.	4E-/	.	4e-/	.	(<8g/L	8ee-/L	p	2E-\)	-son	.	2G/	-son	2B-/	-son	2e-/	-son	1g	.	1ee-	.	4e-/	.	8ee-\L	.	8ee-\L	1ee-	.
.	.	.	.	.	.	.	8B-/	8bb-/J	.	.	.	.	.	.	.	.	.	.	.	.	.	.	.	.	8bb-\J	.	8bb-\J	.	.
4r	.	.	4r	.	4e-/	.	8g/	2bb-/	.	.	.	.	.	.	.	.	.	.	.	.	.	.	4r	.	2bb-\	.	2bb-\	.	.
.	.	.	.	.	.	.	8B-/J)	.	.	.	.	.	.	.	.	.	.	.	.	.	.	.	.	.	.	.	.	.	.
4E-\	.	.	4E-/	.	4e-/	.	(<8g/L	.	.	2r	.	.	2r	.	2r	.	2r	.	.	.	.	.	2r	.	.	.	.	.	.
.	.	.	.	.	.	.	8B-/	.	.	.	.	.	.	.	.	.	.	.	.	.	.	.	.	.	.	.	.	.	.
4r	.	.	4r	.	4e-/	.	8g/	8gg/L	.	.	.	.	.	.	.	.	.	.	.	.	.	.	.	.	8gg\L	.	8gg\L	.	.
.	.	.	.	.	.	.	8B-/J)	8ee-/J	.	.	.	.	.	.	.	.	.	.	.	.	.	.	.	.	8ee-\J	.	8ee-\J	.	.
=51	=51	=51	=51	=51	=51	=51	=51	=51	=51	=51	=51	=51	=51	=51	=51	=51	=51	=51	=51	=51	=51	=51	=51	=51	=51	=51	=51	=51	=51
!	!	!	!	!	!	!	!	!	!	!	!	!	!	!	!	!	!	!	!	!	!LO:TX:a:i:t=Solo	!	!	!	!	!	!	!LO:TX:a:i:rj:t=Solo	!
4BB-/	.	.	4B-/	.	4f/	.	(<8a-/L	8ffL/	.	2.B-\	Ky-	.	2.f\	Ky-	2.a-\	Ky-	2.dd\	Ky-	1b-	.	8ff\L	.	4d/	.	(8ee-\L	.	8ee-\L	(8ff\L	.
.	.	.	.	.	.	.	8B-/	8bb-J/	.	.	.	.	.	.	.	.	.	.	.	.	8bb-\J	.	.	.	8dd\J)	.	8dd\J	8bb-\J)	.
4r	.	.	4r	.	4f/	.	8a-/	2bb- 2dd/	.	.	.	.	.	.	.	.	.	.	.	.	2bb-\	.	4f/	.	2dd\	.	2dd\	2bb-\	.
.	.	.	.	.	.	.	8B-/J)	.	.	.	.	.	.	.	.	.	.	.	.	.	.	.	.	.	.	.	.	.	.
2r	.	.	4B-/	.	4f/	.	(<8a-/L	.	.	.	.	.	.	.	.	.	.	.	.	.	.	.	4g/	.	.	.	.	.	.
.	.	.	.	.	.	.	8B-/	.	.	.	.	.	.	.	.	.	.	.	.	.	.	.	.	.	.	.	.	.	.
.	.	.	4r	.	4f/	.	8a-/	12aa-/L	.	4B-\	-ri-	.	4f\	-ri-	4a-\	-ri-	4dd\	-ri-	.	.	(8aa-\L	.	4f/	.	(8ff\L	.	(8ff\L	(8aa-\L	.
.	.	.	.	.	.	.	.	12ff/	.	.	.	.	.	.	.	.	.	.	.	.	.	.	.	.	.	.	.	.	.
.	.	.	.	.	.	.	8B-/J)	.	.	.	.	.	.	.	.	.	.	.	.	.	8ff\J)	.	.	.	8dd\J)	.	8dd\J)	8ff\J)	.
.	.	.	.	.	.	.	.	12dd/J	.	.	.	.	.	.	.	.	.	.	.	.	.	.	.	.	.	.	.	.	.
!	!	!	!LO:LB:g=original	!	!	!	!	!	!	!	!	!	!	!	!LO:LB:g=original	!	!	!	!	!	!	!	!	!	!	!	!	!	!
=52	=52	=52	=52	=52	=52	=52	=52	=52	=52	=52	=52	=52	=52	=52	=52	=52	=52	=52	=52	=52	=52	=52	=52	=52	=52	=52	=52	=52	=52
4E-\	.	.	4E-/	.	4e-/	.	(<8g/L	8ee-/L	.	2E-\	-e	.	2B-\	-e	2g\	-e	2ee-\	-e	4g/	.	4ee-\	.	4e-/	.	8ee-\L	.	8ee-\L	4ee-\	.
.	.	.	.	.	.	.	8B-/	8bb-/J	.	.	.	.	.	.	.	.	.	.	.	.	.	.	.	.	8bb-\J	.	8bb-\J	.	.
4r	.	.	4r	.	4e-/	.	8g/	2bb-/	.	.	.	.	.	.	.	.	.	.	4r	.	4r	.	4r	.	2bb-\	.	2bb-\	4r	.
.	.	.	.	.	.	.	8B-/J)	.	.	.	.	.	.	.	.	.	.	.	.	.	.	.	.	.	.	.	.	.	.
4E-\	.	.	4E-/	.	4e-/	.	(<8g/L	.	.	2r	.	.	2r	.	2r	.	2r	.	2g/	.	2ee-\	.	2r	.	.	.	.	2ee-\	.
.	.	.	.	.	.	.	8B-/	.	.	.	.	.	.	.	.	.	.	.	.	.	.	.	.	.	.	.	.	.	.
4r	.	.	4r	.	4e-/	.	8g/	16aa-/LL	.	.	.	.	.	.	.	.	.	.	.	.	.	.	.	.	16aa-\LL	.	16aa-\LL	.	.
.	.	.	.	.	.	.	.	16gg/	.	.	.	.	.	.	.	.	.	.	.	.	.	.	.	.	16gg\	.	16gg\	.	.
.	.	.	.	.	.	.	8B-/J)	16ff/	.	.	.	.	.	.	.	.	.	.	.	.	.	.	.	.	16ff\	.	16ff\	.	.
.	.	.	.	.	.	.	.	16ee-/JJ	.	.	.	.	.	.	.	.	.	.	.	.	.	.	.	.	16ee-\JJ	.	16ee-\JJ	.	.
!	!	!	!	!	!	!	!	!	!	!	!	!	!	!	!	!	!	!	!	!	!	!	!	!	!	!	!LO:LB:g=original	!	!
=53	=53	=53	=53	=53	=53	=53	=53	=53	=53	=53	=53	=53	=53	=53	=53	=53	=53	=53	=53	=53	=53	=53	=53	=53	=53	=53	=53	=53	=53
*	*	*	*	*	*	*	*	*	*	*	*ij	*	*	*	*	*	*	*	*	*	*	*	*	*	*	*	*	*	*
4E-\	.	.	4d-X\	.	4e-/	.	(<8a-/L	8ee-/L	.	2.E-\	Ky-	.	2.B-\	Ky-	2.g\	Ky-	2.dd-X\	Ky-	1e-	.	4ee-\	.	4e-/	.	8ee-\L	.	8ee-\L	4ee-\	.
.	.	.	.	.	.	.	8B-/	8dd-X/J	.	.	.	.	.	.	.	.	.	.	.	.	.	.	.	.	8dd-X\J	.	8dd-X\J	.	.
4r	.	.	4r	.	4e-/	.	8a-/	2dd-/	.	.	.	.	.	.	.	.	.	.	.	.	4gg\	.	4r	.	2dd-\	.	2dd-\	4gg\	.
.	.	.	.	.	.	.	8B-/J)	.	.	.	.	.	.	.	.	.	.	.	.	.	.	.	.	.	.	.	.	.	.
4E-\	.	.	4d-\	.	4e-/	.	(<8a-/L	.	.	.	.	.	.	.	.	.	.	.	.	.	4bb-\	.	2r	.	.	.	.	4bb-\	.
.	.	.	.	.	.	.	8B-/	.	.	.	.	.	.	.	.	.	.	.	.	.	.	.	.	.	.	.	.	.	.
4r	.	.	4r	.	4e-/	.	8a-/	4dd-/	.	4E-\	-ri-	.	4B-\	-ri-	4g\	-ri-	4dd-\	-ri-	.	.	4gg\	.	.	.	4dd-\	.	4dd-\	4gg\	.
.	.	.	.	.	.	.	8B-/J)	.	.	.	.	.	.	.	.	.	.	.	.	.	.	.	.	.	.	.	.	.	.
*	*	*	*	*	*	*	*Xtremolo	*Xcue	*	*	*	*	*	*	*	*	*	*	*	*	*	*	*	*	*	*	*	*	*
*	*	*	*	*	*	*	*v	*v	*	*	*	*	*	*	*	*	*	*	*	*	*	*	*	*	*	*	*	*	*
!	!	!	!	!	!	!	!	!	!	!	!	!	!	!	!	!LO:LB:g=original	!	!	!	!	!	!LO:LB:g=original	!	!	!	!	!	!
=54	=54	=54	=54	=54	=54	=54	=54	=54	=54	=54	=54	=54	=54	=54	=54	=54	=54	=54	=54	=54	=54	=54	=54	=54	=54	=54	=54	=54
*	*	*	*tremolo	*	*	*	*	*	*	*	*	*	*	*	*	*	*	*	*	*	*	*	*	*	*	*	*	*
!LO:TX:a:i:rj:t=Tut&colon;	!	!	!	!LO:DY:a:t=for	!	!LO:DY:a:t=for	!	!LO:DY:a:rj:t=for	!	!	!	!	!	!	!	!	!	!	!	!	!	!	!	!	!	!	!	!
4A-\	5_ 3_	.	8A-/L	f	(8c/L	f	8cc\	f	2A-\	-e	.	2e-\	-e	2a-X\	.	2cc\	-e	2e-/	.	2ee-\	.	1cc	.	1ee-	.	1ee-	2ee-\	.
*	*	*	*	*	*	*	*	*	*	*Xij	*	*	*	*	*	*	*	*	*	*	*	*	*	*	*	*	*	*
.	.	.	8A-/	.	8e-/	.	4ee-\	.	.	.	.	.	.	.	.	.	.	.	.	.	.	.	.	.	.	.	.	.
4A-\	.	.	8A-/	.	8a-/	.	.	.	.	.	.	.	.	.	.	.	.	.	.	.	.	.	.	.	.	.	.	.
.	.	.	8A-/J	.	8e-/J)	.	4aa-X\	.	.	.	.	.	.	.	.	.	.	.	.	.	.	.	.	.	.	.	.	.
4A-\	.	.	8A-/L	.	(8c/L	.	.	.	2A-\	e-	.	2e-\	e-	2a-\	-e-	2cc\	e-	2r	.	2ee-\	.	.	.	.	.	.	2ee-\	.
.	.	.	8A-/	.	8e-/	.	4ccc\	.	.	.	.	.	.	.	.	.	.	.	.	.	.	.	.	.	.	.	.	.
4A-\	.	.	8A-/	.	8a-/	.	.	.	.	.	.	.	.	.	.	.	.	.	.	.	.	.	.	.	.	.	.	.
.	.	.	8A-/J	.	8e-/J)	.	8aa-\	.	.	.	.	.	.	.	.	.	.	.	.	.	.	.	.	.	.	.	.	.
!	!	!	!	!	!	!	!LO:LB:g=original	!	!	!	!	!	!	!	!	!	!	!	!	!	!	!	!	!	!	!	!	!
=55	=55	=55	=55	=55	=55	=55	=55	=55	=55	=55	=55	=55	=55	=55	=55	=55	=55	=55	=55	=55	=55	=55	=55	=55	=55	=55	=55	=55
!	!	!	!	!	!	!	!	!	!	!	!	!	!	!	!	!	!	!LO:TX:a:t=1	!	!LO:TX:a:t=1	!	!	!	!	!	!	!LO:TX:a:t=1	!
4G\	6_ 4_	.	8G/L	.	(8c/L	.	8bb-\	.	2G\	-lei-	.	2c\	-lei-	2b-\	-lei-	2ee-X\	-lei-	1r	.	1r	.	1b-	.	1eeX	.	1ee#X	1r	.
.	.	.	8G/	.	8en/	.	(4gg\	.	.	.	.	.	.	.	.	.	.	.	.	.	.	.	.	.	.	.	.	.
4G\	.	.	8G/	.	8g/	.	.	.	.	.	.	.	.	.	.	.	.	.	.	.	.	.	.	.	.	.	.	.
.	.	.	8G/J	.	8e/J)	.	4een\	.	.	.	.	.	.	.	.	.	.	.	.	.	.	.	.	.	.	.	.	.
4G\	.	.	8G/L	.	(8c/L	.	.	.	2G\	-son	.	2c\	-son	2b-\	-son	2ee-\	-son	.	.	.	.	.	.	.	.	.	.	.
.	.	.	8G/	.	8e/	.	4cc\	.	.	.	.	.	.	.	.	.	.	.	.	.	.	.	.	.	.	.	.	.
4G\	.	.	8G/	.	8g/	.	.	.	.	.	.	.	.	.	.	.	.	.	.	.	.	.	.	.	.	.	.	.
.	.	.	8G/J	.	8e/J)	.	8ee\)	.	.	.	.	.	.	.	.	.	.	.	.	.	.	.	.	.	.	.	.	.
!	!	!	!	!	!	!	!	!	!	!	!	!LO:LB:g=original	!	!	!	!	!	!	!	!	!	!	!	!	!	!	!	!
=56	=56	=56	=56	=56	=56	=56	=56	=56	=56	=56	=56	=56	=56	=56	=56	=56	=56	=56	=56	=56	=56	=56	=56	=56	=56	=56	=56	=56
4F\	5_ -_	.	8F/L	.	(8c/L	.	8ff'\	.	2F\	Ky-	.	2c\	Ky-	2a-X\	Ky-	2ff\	Ky-	1ff	.	1aa-	.	1a-X	.	1ff	.	1ff	1aa-	.
.	.	.	8F/	.	8f/	.	(>4a-X/	.	.	.	.	.	.	.	.	.	.	.	.	.	.	.	.	.	.	.	.	.
4F\	.	.	8F/	.	8a-/	.	.	.	.	.	.	.	.	.	.	.	.	.	.	.	.	.	.	.	.	.	.	.
.	.	.	8F/J	.	8f/J)	.	4cc/)	.	.	.	.	.	.	.	.	.	.	.	.	.	.	.	.	.	.	.	.	.
!	!	!	!	!	!LO:LB:g=original	!	!	!	!	!	!	!	!	!	!	!	!	!	!	!	!	!	!	!	!	!	!	!
4F\	.	.	8F/L	.	8c/L	.	.	.	2F\	-ri-	.	2c\	-ri-	2a-\	-ri-	2ff\	-ri-	.	.	.	.	.	.	.	.	.	.	.
.	.	.	8F/	.	8f/	.	4ff\	.	.	.	.	.	.	.	.	.	.	.	.	.	.	.	.	.	.	.	.	.
4F\	.	.	8F/	.	8a-/	.	.	.	.	.	.	.	.	.	.	.	.	.	.	.	.	.	.	.	.	.	.	.
.	.	.	8F/J	.	8f/J	.	8aa-X'\	.	.	.	.	.	.	.	.	.	.	.	.	.	.	.	.	.	.	.	.	.
!LO:LB:g=original	!	!	!	!	!	!	!	!	!	!	!	!	!	!	!	!	!	!	!	!	!	!	!	!	!	!	!	!
=57	=57	=57	=57	=57	=57	=57	=57	=57	=57	=57	=57	=57	=57	=57	=57	=57	=57	=57	=57	=57	=57	=57	=57	=57	=57	=57	=57	=57
4F\	6_ 4_	.	8F/L	.	(8B-/L	.	8aa-'\	.	2D\	-e	.	2B-\	-e	2a-\	-e	2ff\	-e	1b-	.	1ff	.	1a-	.	2ff\	.	2ff\	1ff	.
.	.	.	8F/	.	8d/	.	(4ff\	.	.	.	.	.	.	.	.	.	.	.	.	.	.	.	.	.	.	.	.	.
4F\	.	.	8F/	.	8f/	.	.	.	.	.	.	.	.	.	.	.	.	.	.	.	.	.	.	.	.	.	.	.
.	.	.	8F/J	.	8d/J)	.	4dd\	.	.	.	.	.	.	.	.	.	.	.	.	.	.	.	.	.	.	.	.	.
4F\	.	.	8F/L	.	(8B-/L	.	.	.	2D\	e-	.	2B-\	e-	2a-\	e-	2ff\	e-	.	.	.	.	.	.	2ff\	.	2ff\	.	.
.	.	.	8F/	.	8d/	.	4a-\)	.	.	.	.	.	.	.	.	.	.	.	.	.	.	.	.	.	.	.	.	.
4F\	.	.	8F/	.	8f/	.	.	.	.	.	.	.	.	.	.	.	.	.	.	.	.	.	.	.	.	.	.	.
.	.	.	8F/J	.	8d/J)	.	8f'/	.	.	.	.	.	.	.	.	.	.	.	.	.	.	.	.	.	.	.	.	.
!	!	!	!	!	!	!	!	!	!LO:LB:g=original	!	!	!	!	!	!	!	!	!	!	!	!	!	!	!	!	!	!	!
=58	=58	=58	=58	=58	=58	=58	=58	=58	=58	=58	=58	=58	=58	=58	=58	=58	=58	=58	=58	=58	=58	=58	=58	=58	=58	=58	=58	=58
!	!	!	!	!	!	!	!LO:TX:t=P:problem:mixed beam	!	!	!	!	!	!	!	!	!	!	!	!	!	!	!	!	!	!	!	!	!
4E-\	5 3_	.	8B-/L	.	(8e-/L	.	8g/L	.	(2E-\	-lei-	.	(2B-\	-lei-	(2g\	-lei-	2ee-X\	-lei-	2ee-\	.	2gg\	.	2g/	.	2ee-X\	.	2een\	2gg\	.
.	.	.	8B-/	.	8g/	.	(8gg\	.	.	.	.	.	.	.	.	.	.	.	.	.	.	.	.	.	.	.	.	.
4E-\	.	.	8B-/	.	8b-/	.	8ff\	.	.	.	.	.	.	.	.	.	.	.	.	.	.	.	.	.	.	.	.	.
.	.	.	8B-/J	.	8g/J)	.	8ee-\J)	.	.	.	.	.	.	.	.	.	.	.	.	.	.	.	.	.	.	.	.	.
4F\	7 n	.	8c/L	.	(8c/L	.	(8dd\L	.	2F\)	.	.	2c\)	.	2e-\)	.	2an\	.	2ff\	.	2ff\	.	2a/	.	2ee-\	.	2ee\	2ff\	.
.	.	.	8c/	.	8e-/	.	8cc\	.	.	.	.	.	.	.	.	.	.	.	.	.	.	.	.	.	.	.	.	.
4F\	7 n	.	8c/	.	8f/	.	8b-\)	.	.	.	.	.	.	.	.	.	.	.	.	.	.	.	.	.	.	.	.	.
.	.	.	8c/J	.	8e-/J)	.	8an\J|	.	.	.	.	.	.	.	.	.	.	.	.	.	.	.	.	.	.	.	.	.
*	*	*	*Xtremolo	*	*	*	*	*	*	*	*	*	*	*	*	*	*	*	*	*	*	*	*	*	*	*	*	*
!	!	!	!	!	!	!	!	!	!	!	!	!	!	!	!	!	!	!	!	!	!	!	!	!LO:LB:g=original	!	!	!	!
=59	=59	=59	=59	=59	=59	=59	=59	=59	=59	=59	=59	=59	=59	=59	=59	=59	=59	=59	=59	=59	=59	=59	=59	=59	=59	=59	=59	=59
!LO:TX:t=P:problem:mixed beam	!	!	!	!	!LO:TX:a:t=P:problem:mixed beam	!	!LO:TX:t=P:problem:mixed beam	!	!	!	!	!	!	!	!	!	!	!	!	!	!	!	!	!	!	!	!	!
8B-\L	3 5	.	4B-/	.	(8d/L	.	8b-|\L	.	2B-\	-son	.	2d\	-son	2f\	-son	2b-\	-son	2b-/	.	2ff\	.	2b-\	.	2dd\	.	2dd\	2ff\	.
8BB-/	.	.	.	.	8B-/)	.	(8B-/	.	.	.	.	.	.	.	.	.	.	.	.	.	.	.	.	.	.	.	.	.
8B-'\	.	.	8B-/L	.	8b-|\	.	8b-\)	.	.	.	.	.	.	.	.	.	.	.	.	.	.	.	.	.	.	.	.	.
8B-'\J	.	.	8B-/J	.	8b-|\J	.	8b-|\J	.	.	.	.	.	.	.	.	.	.	.	.	.	.	.	.	.	.	.	.	.
8B-'\L	.	.	8B-/L	.	(8b-/L	.	8b-|/L	.	2r	.	.	2r	.	2r	.	2r	.	2r	.	2r	.	2r	.	2r	.	2r	2r	.
8A-X'\	.	.	8A-/	.	8a-/	.	(8a-X/	.	.	.	.	.	.	.	.	.	.	.	.	.	.	.	.	.	.	.	.	.
8G'\	.	.	8G/	.	8g/	.	8g/	.	.	.	.	.	.	.	.	.	.	.	.	.	.	.	.	.	.	.	.	.
8F'\J	.	.	8F/J	.	8f/J)	.	8f/J)	.	.	.	.	.	.	.	.	.	.	.	.	.	.	.	.	.	.	.	.	.
=60	=60	=60	=60	=60	=60	=60	=60	=60	=60	=60	=60	=60	=60	=60	=60	=60	=60	=60	=60	=60	=60	=60	=60	=60	=60	=60	=60	=60
!LO:TX:a:i:t=Tasto Solo	!	!	!	!	!	!LO:DY:a:t=pio	!	!LO:DY:a:t=pio	!LO:TX:a:i:t=Solo	!	!	!LO:TX:a:i:t=Solo	!	!	!	!	!	!	!	!	!	!LO:TX:a:i:t=Solo	!	!LO:TX:a:i:t=Solo	!	!	!LO:TX:a:t=2	!
!	!	!	!	!	!	!	!	!	!	!	!	!	!	!LO:TX:a:t=4	!	!LO:TX:a:t=4	!	!LO:TX:a:t=2	!	!LO:TX:a:t=2	!	!	!	!	!	!	!	!
4E-\	.	.	4E-/	.	2.g/	p	2.b-\	p	2.G\	Ky-	.	2.B-\	Ky-	00r	.	00r	.	0r	.	0r	.	8r	.	8r	.	8r	0r	.
!	!	!	!	!	!	!	!	!	!	!	!	!	!	!	!	!	!	!	!	!	!	!	!LO:DY:a:t=pia	!	!	!	!	!
.	.	.	.	.	.	.	.	.	.	.	.	.	.	.	.	.	.	.	.	.	.	8gg\L	p	8bb-'\L	.	(8bb-\L	.	.
4r	.	.	4r	.	.	.	.	.	.	.	.	.	.	.	.	.	.	.	.	.	.	8ee-\	.	(8gg\	.	8gg\)	.	.
.	.	.	.	.	.	.	.	.	.	.	.	.	.	.	.	.	.	.	.	.	.	8b-\J	.	8ee-\J)	.	8ee-\J	.	.
!	!	!	!LO:LB:g=original	!	!	!	!	!	!	!	!	!	!	!	!	!	!	!	!	!	!	!	!	!	!	!	!	!
4E-\	.	.	4E-/	.	.	.	.	.	.	.	.	.	.	.	.	.	.	.	.	.	.	8r	.	8r	.	8r	.	.
.	.	.	.	.	.	.	.	.	.	.	.	.	.	.	.	.	.	.	.	.	.	8b-\L	.	8ee-\L|	.	8ee-\L	.	.
4r	.	.	4r	.	4g/	.	4b-\	.	4G\	-ri-	.	4B-\	-ri-	.	.	.	.	.	.	.	.	(8ee-\	.	(8gg\	.	8gg\	.	.
.	.	.	.	.	.	.	.	.	.	.	.	.	.	.	.	.	.	.	.	.	.	8gg\J)	.	8bb-\J)	.	8bb-\J	.	.
=61	=61	=61	=61	=61	=61	=61	=61	=61	=61	=61	=61	=61	=61	=61	=61	=61	=61	=61	=61	=61	=61	=61	=61	=61	=61	=61	=61	=61
4A-\	.	.	4e-\	.	2g/	.	2bn\	.	(4G\	-e	.	(4Bn\	-e	.	.	.	.	.	.	.	.	8r	.	8r	.	8r	.	.
.	.	.	.	.	.	.	.	.	.	.	.	.	.	.	.	.	.	.	.	.	.	8aa-X\L	.	8ccc'\L	.	8ccc\L	.	.
4r	.	.	4r	.	.	.	.	.	2A-\)	.	.	2c\)	.	.	.	.	.	.	.	.	.	8ee-\	.	(8aa-\	.	8aa-\	.	.
.	.	.	.	.	.	.	.	.	.	.	.	.	.	.	.	.	.	.	.	.	.	8cc\J	.	8ee-\J)	.	8ee-\J	.	.
4A-\	.	.	4e-\	.	4a-/	.	4cc\	.	.	.	.	.	.	.	.	.	.	.	.	.	.	8r	.	8r	.	8r	.	.
.	.	.	.	.	.	.	.	.	.	.	.	.	.	.	.	.	.	.	.	.	.	8cc'\L	.	8ee-\L|	.	8ee-\L	.	.
4r	.	.	4r	.	4r	.	4r	.	4r	.	.	4r	.	.	.	.	.	.	.	.	.	(8ee-\	.	(8aa-\	.	8aa-\	.	.
.	.	.	.	.	.	.	.	.	.	.	.	.	.	.	.	.	.	.	.	.	.	8aa-\J)	.	8ccc\J)	.	8ccc\J	.	.
!	!	!	!	!	!	!	!LO:LB:g=original	!	!	!	!	!	!	!	!	!	!	!	!	!	!	!	!	!	!	!	!LO:LB:g=original	!
=62	=62	=62	=62	=62	=62	=62	=62	=62	=62	=62	=62	=62	=62	=62	=62	=62	=62	=62	=62	=62	=62	=62	=62	=62	=62	=62	=62	=62
*	*	*	*	*	*	*	*	*	*	*ij	*	*	*ij	*	*	*	*	*	*	*	*	*	*	*	*	*	*	*
!	!	!	!	!	!	!	!	!	!	!	!	!	!	!	!	!	!	!	!	!	!LO:DY:a:t=po	!	!	!	!	!	!	!LO:DY:b:t=pio
4B-\	.	.	4B-/	.	2.f/	.	2.a-X/	.	2.F\	Ky-	.	2.A-X\	Ky-	.	.	.	.	1b-T	.	1ee-	p	8r	.	8r	.	8r	1ff	p
.	.	.	.	.	.	.	.	.	.	.	.	.	.	.	.	.	.	.	.	.	.	8ff'\L	.	8aa-\L|	.	8aa-\L	.	.
4r	.	.	4r	.	.	.	.	.	.	.	.	.	.	.	.	.	.	.	.	.	.	(8dd\	.	(8ff\	.	8ff\	.	.
.	.	.	.	.	.	.	.	.	.	.	.	.	.	.	.	.	.	.	.	.	.	8b-\J)	.	8dd\J)	.	8dd\J	.	.
!	!	!	!	!	!	!	!	!	!	!	!	!	!	!	!	!	!	!	!	!	!	!LO:LB:g=original	!	!	!	!	!	!
4BB-/	.	.	4B-/	.	.	.	.	.	.	.	.	.	.	.	.	.	.	.	.	.	.	8r	.	8r	.	8r	.	.
.	.	.	.	.	.	.	.	.	.	.	.	.	.	.	.	.	.	.	.	.	.	8b-'\L	.	8dd\L|	.	8dd\L	.	.
4r	.	.	4r	.	4f/	.	4a-/	.	4F\	-ri-	.	4A-\	-ri-	.	.	.	.	.	.	.	.	(8dd\	.	(8ff\	.	8ff\	.	.
.	.	.	.	.	.	.	.	.	.	.	.	.	.	.	.	.	.	.	.	.	.	8ff\J)	.	8aa-\J)	.	8aa-\J	.	.
!	!	!	!	!	!	!	!	!	!	!	!	!	!	!	!	!	!	!	!	!LO:LB:g=original	!	!	!	!	!	!LO:LB:g=original	!	!
=63	=63	=63	=63	=63	=63	=63	=63	=63	=63	=63	=63	=63	=63	=63	=63	=63	=63	=63	=63	=63	=63	=63	=63	=63	=63	=63	=63	=63
4E-\	.	.	4E-/	.	2f#X/	.	2an/	.	(2F#X\	-e	.	(2An\	-e	.	.	.	.	2g/	.	1ee-	.	8r	.	8r	.	8r	1ee-	.
*	*	*	*	*	*	*	*	*	*	*Xij	*	*	*Xij	*	*	*	*	*	*	*	*	*	*	*	*	*	*	*
.	.	.	.	.	.	.	.	.	.	.	.	.	.	.	.	.	.	.	.	.	.	8gg\L	.	8bb-\L|	.	(8bb-\L	.	.
4r	.	.	4r	.	.	.	.	.	.	.	.	.	.	.	.	.	.	.	.	.	.	8ee-\	.	(8gg\	.	8gg\)	.	.
.	.	.	.	.	.	.	.	.	.	.	.	.	.	.	.	.	.	.	.	.	.	8b-\J	.	8ee-\J)	.	8ee-\J|	.	.
4E-\	.	.	4E-/	.	4g/	.	4b-/	.	4G\)	.	.	4B-X\)	.	.	.	.	.	2g/	.	.	.	8r	.	8r	.	8r	.	.
.	.	.	.	.	.	.	.	.	.	.	.	.	.	.	.	.	.	.	.	.	.	8b-\L	.	8ee-\L|	.	8ee-\L	.	.
4r	.	.	4r	.	4r	.	4r	.	4r	.	.	4r	.	.	.	.	.	.	.	.	.	8ee-\	.	(8gg\	.	8gg\	.	.
.	.	.	.	.	.	.	.	.	.	.	.	.	.	.	.	.	.	.	.	.	.	8gg\J	.	8bb-\J)	.	8bb-\J	.	.
=64	=64	=64	=64	=64	=64	=64	=64	=64	=64	=64	=64	=64	=64	=64	=64	=64	=64	=64	=64	=64	=64	=64	=64	=64	=64	=64	=64	=64
!LO:TX:a:i:t=Tasto	!	!	!	!	!	!	!	!LO:DY:a:rj:t=fp&colon;	!	!	!	!	!	!	!	!	!	!	!	!	!	!	!	!	!	!	!	!
1BB-	.	.	2.d\	.	2.a-X/	.	2.ff\	fp	2.B-\	Ky-	.	2.d\	Ky-	2.a-\	Ky-	2.ff\	Ky-	2.b-/	.	2.ff\	.	2.a-X/	.	2.ff\	.	2.ff\	2.ff\	.
.	.	.	4e-\	.	4g/	.	4ee-\	.	4B-\	-ri-	.	4e-\	-ri-	4g\	-ri-	4ee-\	-ri-	4ee-\	.	4gg\	.	4g/	.	4ee-\	.	4ee-\	4gg\	.
=65	=65	=65	=65	=65	=65	=65	=65	=65	=65	=65	=65	=65	=65	=65	=65	=65	=65	=65	=65	=65	=65	=65	=65	=65	=65	=65	=65	=65
.	.	.	.	.	.	.	.	.	.	.	.	.	.	.	.	4qqgg/	.	.	.	.	.	.	.	.	.	.	.	.
!	!	!	!	!	!	!	!	!LO:DY:a:rj:t=fp&colon;	!	!	!	!	!	!	!	!	!	!	!	!	!	!	!	!	!	!	!	!
1BB-	.	.	2.d\	.	2.a-/	.	2.ff\	fp	2.B-\	-e	.	2.d\	-e	2.a-\	-e	2.ff\	-e	2.b-/	.	2.ff\	.	2.a-/	.	2.ff\	.	2.ff\	2.ff\	.
.	.	.	4e-\	.	4g/	.	4ee-\	.	4B-\	e-	.	4e-\	e-	4g\	e-	4ee-\	e-	4ee-\	.	4gg\	.	4g/	.	4ee-\	.	4ee-\	4gg\	.
!	!	!	!	!	!LO:LB:g=original	!	!	!	!	!	!	!	!	!	!	!	!	!LO:LB:g=original	!	!	!	!	!	!	!	!	!	!
=66	=66	=66	=66	=66	=66	=66	=66	=66	=66	=66	=66	=66	=66	=66	=66	=66	=66	=66	=66	=66	=66	=66	=66	=66	=66	=66	=66	=66
!	!	!	!	!	!	!	!	!LO:DY:a:rj:t=fp&colon;	!	!	!	!	!	!	!	!	!	!	!	!	!	!	!	!	!	!	!	!
1BB-	7 5	.	2.d\	.	2.a-/	.	2.ff\	fp	2.B-\	-lei-	.	1f	-lei-	1a-	-lei-	2.ff\	-lei-	2.b-/	.	2.ff\	.	2.a-\	.	2.ff\	.	2.ff\	2.ff\	.
.	6 4	.	4e-\	.	4g/	.	4ee-\	.	4E-\	.	.	.	.	.	.	4ee-\	.	4ee-\	.	4gg\	.	4b-\	.	4ee-\	.	4ee-\	4gg\	.
!LO:LB:g=original	!	!	!	!	!	!	!	!	!	!	!	!LO:LB:g=original	!	!	!	!	!	!	!	!	!	!	!	!	!	!	!	!
=67	=67	=67	=67	=67	=67	=67	=67	=67	=67	=67	=67	=67	=67	=67	=67	=67	=67	=67	=67	=67	=67	=67	=67	=67	=67	=67	=67	=67
1BB-	7 5	.	2d;\	.	2a-;/	.	4dd\	.	1B-;	-son	.	1f;	-son	1a-;	-son	2dd;\	-son	1b-;	.	1ff;	.	1a-;	.	1dd;	.	1dd;	1ff;	.
.	.	.	.	.	.	.	2.dd;\	.	.	.	.	.	.	.	.	.	.	.	.	.	.	.	.	.	.	.	.	.
.	.	.	2r	.	2r	.	.	.	.	.	.	.	.	.	.	2r	.	.	.	.	.	.	.	.	.	.	.	.
=68	=68	=68	=68	=68	=68	=68	=68	=68	=68	=68	=68	=68	=68	=68	=68	=68	=68	=68	=68	=68	=68	=68	=68	=68	=68	=68	=68	=68
*	*	*	*	*	*	*	*^	*	*	*	*	*	*	*	*	*	*	*	*	*	*	*	*	*	*	*	*	*
!LO:TX:a:i:t=Solo	!	!	!LO:TX:a:t=2	!	!LO:TX:a:t=2	!	!	!	!LO:DY:a:t=pio	!	!	!	!	!	!	!	!	!	!LO:TX:a:t=2	!	!LO:TX:a:i:t=Solo	!	!LO:TX:a:t=2	!	!LO:TX:a:i:t=Solo&colon;	!	!	!LO:TX:a:i:t=Solo	!
4E-\	.	.	0r	.	0r	.	4e-/	4ryy	p	1r	.	.	1r	.	1r	.	1r	.	0r	.	4r	.	0r	.	4r	.	4r	4r	.
*	*	*	*	*	*	*	*	*cue	*	*	*	*	*	*	*	*	*	*	*	*	*	*	*	*	*	*	*	*	*
!	!	!	!	!	!	!	!	!	!	!	!	!	!	!	!	!	!	!	!	!	!	!	!	!	!	!LO:DY:a:t=pia.	!	!	!
4r	.	.	.	.	.	.	4re	4gg/	.	.	.	.	.	.	.	.	.	.	.	.	4gg\	.	.	.	4ee-\	p	4ee-\	4gg 4ee-\	.
2r	.	.	.	.	.	.	2rcc	4aa-/	.	.	.	.	.	.	.	.	.	.	.	.	4aa-\	.	.	.	4ff\	.	4ff\	4aa-\	.
.	.	.	.	.	.	.	.	4bb-/	.	.	.	.	.	.	.	.	.	.	.	.	4bb-\	.	.	.	4gg\	.	4gg\	4bb-\	.
!	!	!	!	!	!	!	!	!	!	!	!	!	!	!	!	!	!LO:LB:g=original	!	!	!	!	!	!	!	!LO:LB:g=original	!	!	!	!
=69	=69	=69	=69	=69	=69	=69	=69	=69	=69	=69	=69	=69	=69	=69	=69	=69	=69	=69	=69	=69	=69	=69	=69	=69	=69	=69	=69	=69	=69
4A-\	.	.	.	.	.	.	4A-X/	4ccc/	.	2r	.	.	2r	.	2r	.	2r	.	.	.	4ccc\	.	.	.	(8bb-\L	.	8bb-\L	4ccc\	.
.	.	.	.	.	.	.	.	.	.	.	.	.	.	.	.	.	.	.	.	.	.	.	.	.	8aa-\J)	.	8aa-\J	.	.
4r	.	.	.	.	.	.	4ra	4ccc/	.	.	.	.	.	.	.	.	.	.	.	.	4ccc\	.	.	.	4aa-\	.	4aa-\	4ccc\	.
!LO:TX:a:i:t=Tut&colon;	!	!	!	!	!	!	!	!	!	!	!	!	!	!	!	!	!	!	!	!	!	!	!	!	!	!	!	!	!
4r	.	.	.	.	.	.	4ra	4bb-/	.	4r	.	.	4r	.	4r	.	4r	.	.	.	4bb-\	.	.	.	4gg\	.	4gg\	4bb-\	.
!	!	!	!	!	!	!	!	!	!LO:DY:rj:t=for	!	!	!	!	!	!	!	!	!	!	!	!	!	!	!	!	!	!	!	!
4A-\	6 3	.	.	.	.	.	4ff\	4aa-/	f	4B-\	e-	.	4c\	e-	4a-\	e-	4ff\	e-	.	.	4aa-\	.	.	.	4ff\	.	4ff\	4aa-\	.
*	*	*	*	*	*	*	*v	*v	*	*	*	*	*	*	*	*	*	*	*	*	*	*	*	*	*	*	*	*	*
!	!	!	!	!	!	!	!	!	!LO:LB:g=original	!	!	!	!	!LO:LB:g=original	!	!	!	!	!	!	!	!	!	!	!	!	!	!
=70	=70	=70	=70	=70	=70	=70	=70	=70	=70	=70	=70	=70	=70	=70	=70	=70	=70	=70	=70	=70	=70	=70	=70	=70	=70	=70	=70	=70
*	*	*	*tremolo	*	*tremolo	*	*tremolo	*	*	*	*	*	*	*	*	*	*	*	*	*	*	*	*	*	*	*	*	*
!	!	!	!	!LO:DY:b:t=for	!	!LO:DY:a:t=for	!	!	!	!	!	!	!	!	!	!	!	!	!	!	!	!	!	!	!	!	!	!
4B-\	6_ 4_	.	8b-\L	f	8g/L	f	8ee-\L	.	2B-\	-lei-	.	1B-	-lei-	2g\	-lei-	(2ee-\	-lei-	2ee-\	.	2gg\	.	2b-\	.	2ee-\	.	2ee-\	2gg\	.
.	.	.	8b-\	.	8g/	.	8ee-\	.	.	.	.	.	.	.	.	.	.	.	.	.	.	.	.	.	.	.	.	.
4B-\	.	.	8b-\	.	8g/	.	8ee-\	.	.	.	.	.	.	.	.	.	.	.	.	.	.	.	.	.	.	.	.	.
.	.	.	8b-\J	.	8g/J	.	8ee-\J	.	.	.	.	.	.	.	.	.	.	.	.	.	.	.	.	.	.	.	.	.
4BB-/	7_ 5_	.	8a-\L	.	8f/L	.	8dd\L	.	2BB-/	.	.	.	.	2f\	.	2dd\)	.	2b-/	.	2ff\	.	2a-\	.	2dd\	.	2dd\	2ff\	.
.	.	.	8a-\	.	8f/	.	8dd\	.	.	.	.	.	.	.	.	.	.	.	.	.	.	.	.	.	.	.	.	.
4BB-/	.	.	8a-\	.	8f/	.	8dd\	.	.	.	.	.	.	.	.	.	.	.	.	.	.	.	.	.	.	.	.	.
.	.	.	8a-\J	.	8f/J	.	8dd\J	.	.	.	.	.	.	.	.	.	.	.	.	.	.	.	.	.	.	.	.	.
*	*	*	*Xtremolo	*	*Xtremolo	*	*Xtremolo	*	*	*	*	*	*	*	*	*	*	*	*	*	*	*	*	*	*	*	*	*
=71	=71	=71	=71	=71	=71	=71	=71	=71	=71	=71	=71	=71	=71	=71	=71	=71	=71	=71	=71	=71	=71	=71	=71	=71	=71	=71	=71	=71
4E-\	5_ 3_	.	4g\	.	2g/	.	2ee-\	.	2E-\	-son	.	2B-\	-son	2g\	-son	2ee-\	-son	2g/	.	2ee-\	.	2b-\	.	2ee-\	.	2ee-\	2ee-\	.
4E-\	.	.	4e-\	.	.	.	.	.	.	.	.	.	.	.	.	.	.	.	.	.	.	.	.	.	.	.	.	.
4r	.	.	4r	.	4cc\	.	(8ff\L	.	4E-\	Ky-	.	4e-\	Ky-	8dd\L	Ky-	8ff\L	Ky-	2r	.	2r	.	8dd\L	.	8ff\L	.	8ff\L	2r	.
.	.	.	.	.	.	.	8ee-\	.	.	.	.	.	.	8cc\J	.	8ee-\J	.	.	.	.	.	8cc\	.	8ee-\	.	8ee-\	.	.
4A-\	5 3	.	4e-\	.	(8b-\L	.	8dd\	.	4G\	-ri-	.	4e-\	-ri-	8b-\L	-ri-	8dd\L	-ri-	.	.	.	.	8b-\	.	8dd\	.	8dd\	.	.
.	.	.	.	.	8a-\J)	.	8cc\J)	.	.	.	.	.	.	8a-\J	.	8cc\J	.	.	.	.	.	8a-\J	.	8cc\J	.	8cc\J	.	.
!	!	!	!LO:LB:g=original	!	!	!	!LO:LB:g=original	!	!	!	!	!	!	!	!	!	!	!	!	!	!	!LO:LB:g=original	!	!	!	!	!	!
=72	=72	=72	=72	=72	=72	=72	=72	=72	=72	=72	=72	=72	=72	=72	=72	=72	=72	=72	=72	=72	=72	=72	=72	=72	=72	=72	=72	=72
4G\	6_ 3_	.	4G/	.	4d|/	.	2b-\	.	2.G\	-e	.	2.e-\	-e	2.e-\	-e	2b-\	-e	2g/	.	2ee-\	.	2g/	.	2b-\	.	2b-\	2ee-\	.
4G\	.	.	4B-/	.	4e-|/	.	.	.	.	.	.	.	.	.	.	.	.	.	.	.	.	.	.	.	.	.	.	.
4A-\	6_ 3_	.	4A-/	.	4e-|/	.	(8bn\L	.	.	.	.	.	.	.	.	8bn\L	.	4g/	.	4ee-\	.	4r	.	4r	.	4r	4ee-\	.
.	.	.	.	.	.	.	8cc\	.	.	.	.	.	.	.	.	8cc\J	.	.	.	.	.	.	.	.	.	.	.	.
4A-\	.	.	4c/	.	(8c/L	.	8a-\)	.	4A-\	e-	.	4A-\	e-	4c\	e-	8a-X\L	e-	4b-/	.	4ff\	.	4ff\	.	4aa-\	.	4aa-\	4ff\	.
.	.	.	.	.	8A-/J)	.	8f\J	.	.	.	.	.	.	.	.	8f\J	.	.	.	.	.	.	.	.	.	.	.	.
!	!	!	!	!	!	!	!	!	!	!	!	!	!	!	!	!	!	!	!	!	!	!	!	!	!	!LO:LB:g=original	!LO:LB:g=original	!
=73	=73	=73	=73	=73	=73	=73	=73	=73	=73	=73	=73	=73	=73	=73	=73	=73	=73	=73	=73	=73	=73	=73	=73	=73	=73	=73	=73	=73
*	*	*	*	*	*tremolo	*	*tremolo	*	*	*	*	*	*	*	*	*	*	*	*	*	*	*	*	*	*	*	*	*
!	!	!	!	!	!	!	!	!	!	!	!	!	!	!	!	!	!	!	!	!	!	!	!	!	!LO:DY:a:rj	!	!	!
4B-\	6_ 4_	.	4G/	.	8B-/L	.	8e-/L	.	2B-\	-lei-	.	(>2G/	-lei-	2B-/	-lei-	(>2e-/	-lei-	2ee-\	.	2gg\	.	2ee-\	.	2gg\	pp	2gg\	2gg\	.
.	.	.	.	.	8B-/	.	8e-/	.	.	.	.	.	.	.	.	.	.	.	.	.	.	.	.	.	.	.	.	.
4B-\	.	.	4B-/	.	8B-/	.	8e-/	.	.	.	.	.	.	.	.	.	.	.	.	.	.	.	.	.	.	.	.	.
.	.	.	.	.	8B-/J	.	8e-/J	.	.	.	.	.	.	.	.	.	.	.	.	.	.	.	.	.	.	.	.	.
4BB-/	7_ 5_	.	4B-/	.	8A-X/L	.	8d/L	.	2BB-/	.	.	2F/)	.	2A-/	.	2d/)	.	2b-/	.	2ff\	.	2dd\	.	2ff\	.	2ff\	2ff\	.
.	.	.	.	.	8A-X/	.	8d/	.	.	.	.	.	.	.	.	.	.	.	.	.	.	.	.	.	.	.	.	.
4BB-/	.	.	4B-/	.	8A-X/	.	8d/	.	.	.	.	.	.	.	.	.	.	.	.	.	.	.	.	.	.	.	.	.
.	.	.	.	.	8A-X/J	.	8d/J	.	.	.	.	.	.	.	.	.	.	.	.	.	.	.	.	.	.	.	.	.
*	*	*	*	*	*	*	*Xtremolo	*	*	*	*	*	*	*	*	*	*	*	*	*	*	*	*	*	*	*	*	*
*	*	*	*	*	*Xtremolo	*	*	*	*	*	*	*	*	*	*	*	*	*	*	*	*	*	*	*	*	*	*	*
!	!	!	!	!	!	!	!	!	!	!	!	!	!	!	!	!	!	!	!	!LO:LB:g=original	!	!	!	!	!	!	!	!
=74	=74	=74	=74	=74	=74	=74	=74	=74	=74	=74	=74	=74	=74	=74	=74	=74	=74	=74	=74	=74	=74	=74	=74	=74	=74	=74	=74	=74
4E-\	5 3	.	4E-/	.	4B-/	.	4e- 4G/	.	2E-\	-son	.	2G/	-son	2B-/	-son	2e-/	-son	1ee-	.	1ggt	.	4rt	.	4r	.	4r	1gg	.
4r	.	.	4r	.	4r	.	4r	.	.	.	.	.	.	.	.	.	.	.	.	.	.	4ee-\	.	4gg'\	.	4gg\	.	.
2r	.	.	2r	.	2r	.	2r	.	2r	.	.	2r	.	2r	.	2r	.	.	.	.	.	4ee-\	.	4gg'\	.	4gg\	.	.
.	.	.	.	.	.	.	.	.	.	.	.	.	.	.	.	.	.	.	.	.	.	4ee-\	.	4gg'\	.	4gg\	.	.
=75	=75	=75	=75	=75	=75	=75	=75	=75	=75	=75	=75	=75	=75	=75	=75	=75	=75	=75	=75	=75	=75	=75	=75	=75	=75	=75	=75	=75
!LO:TX:a:i:t=Tasto	!	!	!	!	!	!	!	!LO:DY:a:t=pio	!	!	!	!	!	!	!	!	!	!	!	!	!	!	!	!	!	!	!	!
4BB-/	.	.	4B-/	.	4d/	.	4f 4A-/	p	2.B-\	Ky-	.	2.f\	Ky-	2.a-X\	Ky-	2.dd\	Ky-	1b-	.	1ff	.	4r	.	4r	.	4r	1ff	.
!	!	!LO:DY:a:t=pi	!	!	!	!	!	!	!	!	!	!	!	!	!	!	!	!	!	!	!	!	!	!	!	!	!	!
4r	.	p	4r	.	4r	.	4r	.	.	.	.	.	.	.	.	.	.	.	.	.	.	4dd\	.	4ff\	.	4ff\	.	.
2r	.	.	2r	.	2r	.	2r	.	.	.	.	.	.	.	.	.	.	.	.	.	.	4dd\	.	4ff\	.	4ff\	.	.
.	.	.	.	.	.	.	.	.	4B-\	-ri-	.	4f\	-ri-	4a-\	-ri-	4dd\	-ri-	.	.	.	.	4dd\	.	4ff\	.	4ff\	.	.
!LO:LB:g=original	!	!	!	!	!	!	!	!	!	!	!	!	!	!	!	!	!	!	!	!	!	!	!	!	!	!	!	!
=76	=76	=76	=76	=76	=76	=76	=76	=76	=76	=76	=76	=76	=76	=76	=76	=76	=76	=76	=76	=76	=76	=76	=76	=76	=76	=76	=76	=76
4E-\	.	.	4E-/	.	4B-/	.	4e- 4G/	.	2E-\	-e	.	2B-\	-e	2g\	-e	4ee-\	-e	1g	.	1ee-	.	4r	.	4r	.	4r	1ee-	.
4r	.	.	4r	.	4r	.	4r	.	.	.	.	.	.	.	.	4r	.	.	.	.	.	4b-\	.	4ee-\	.	4ee-\	.	.
2r	.	.	2r	.	2r	.	2r	.	4r	.	.	4r	.	4r	.	4r	.	.	.	.	.	4b-\	.	4ee-\	.	4ee-\	.	.
.	.	.	.	.	.	.	.	.	4E-\	e-	.	4B-\	e-	4g\	e-	4ee-\	e-	.	.	.	.	4b-\	.	4ee-\	.	4ee-\	.	.
=77	=77	=77	=77	=77	=77	=77	=77	=77	=77	=77	=77	=77	=77	=77	=77	=77	=77	=77	=77	=77	=77	=77	=77	=77	=77	=77	=77	=77
4BB-/	.	.	4B-/	.	4d/	.	4d 4A-/	.	1BB-	-lei-	.	(2.B-\	-lei-	(2a-\	-lei-	1dd	-lei-	1b-	.	1ff	.	4r	.	4r	.	4r	1ff	.
4r	.	.	4r	.	4r	.	4r	.	.	.	.	.	.	.	.	.	.	.	.	.	.	4a-\	.	4dd\	.	4dd\	.	.
2r	.	.	2r	.	2r	.	2r	.	.	.	.	.	.	2a-\)	.	.	.	.	.	.	.	4a-\	.	4dd\	.	4dd\	.	.
.	.	.	.	.	.	.	.	.	.	.	.	4A-\)	.	.	.	.	.	.	.	.	.	4a-\	.	4dd\	.	4dd\	.	.
=78	=78	=78	=78	=78	=78	=78	=78	=78	=78	=78	=78	=78	=78	=78	=78	=78	=78	=78	=78	=78	=78	=78	=78	=78	=78	=78	=78	=78
!	!	!	!	!LO:DY:a:t=pia	!	!	!	!	!	!	!	!	!	!	!	!	!	!	!LO:DY:a	!	!	!	!	!	!	!	!	!LO:DY:t=pianiſ&colon;
4E-\	.	.	2E-/	p	2B-/	.	2e- 2G/	.	2E-\	-son	.	2B-\	-son	2g\	-son	2ee-\	-son	2g/	pp	2ee-T\	.	2b-/	.	2ee-\	.	2ee-\	2ee-\	pp
4r	.	.	.	.	.	.	.	.	.	.	.	.	.	.	.	.	.	.	.	.	.	.	.	.	.	.	.	.
4E-\	.	.	2E-/	.	2B-/	.	2e- 2G/	.	2r	.	.	2r	.	2r	.	2r	.	2g/	.	2ee-\	.	2g/	.	2b-\	.	2b-\	2ee-\	.
4r	.	.	.	.	.	.	.	.	.	.	.	.	.	.	.	.	.	.	.	.	.	.	.	.	.	.	.	.
=79	=79	=79	=79	=79	=79	=79	=79	=79	=79	=79	=79	=79	=79	=79	=79	=79	=79	=79	=79	=79	=79	=79	=79	=79	=79	=79	=79	=79
*2\right	*	*	*	*	*	*	*	*	*	*	*	*	*	*	*	*	*	*	*	*	*	*	*	*	*	*	*	*
!	!	!LO:DY:a:t=pp&colon;	!	!	!	!	!	!	!	!	!	!	!	!LO:TX:a:t=2	!	!	!	!	!	!	!	!	!	!	!	!	!	!
2E-\	.	pp	2E-/	.	2B-/	.	2e- 2G/	.	0r	.	.	0r	.	0r	.	0r	.	2g/	.	2ee-\	.	2e-/	.	2g/	.	2g/	2ee-\	.
2E-\	.	.	2E-/	.	2B-/	.	2e- 2G/	.	.	.	.	.	.	.	.	.	.	2g/	.	2ee-\	.	2B-/	.	2e-/	.	2e-/	2ee-\	.
=80	=80	=80	=80	=80	=80	=80	=80	=80	=80	=80	=80	=80	=80	=80	=80	=80	=80	=80	=80	=80	=80	=80	=80	=80	=80	=80	=80	=80
2E-\	.	.	2E-/	.	2B-/	.	2e- 2G/	.	.	.	.	.	.	.	.	.	.	2g/	.	2ee-\	.	2B-/	.	2e-/	.	2e-/	2ee-\	.
2r	.	.	2r	.	2r	.	2r	.	.	.	.	.	.	.	.	.	.	2r	.	2r	.	2r	.	2r	.	2r	2r	.
==	==	==	==	==	==	==	==	==	==	==	==	==	==	==	==	==	==	==	==	==	==	==	==	==	==	==	==	==
*-	*-	*-	*-	*-	*-	*-	*-	*-	*-	*-	*-	*-	*-	*-	*-	*-	*-	*-	*-	*-	*-	*-	*-	*-	*-	*-	*-	*-
!!!system-decoration: [(g1)][(g2)][(g3)][(g4)]s14
!!!RDF**kern: > = above
!!!RDF**kern: < = below
!!!RDF**kern: | = vertical stroke
!!!RDF**kern: @ = marked note, color=grey
!!!ENC: Solarz Mateusz
!!!END: 2020-10-15
!!!ENC: Marta Lawrence
!!!END: 2021-01-19
